!!!COM: L van Beethoven
!!!OTL: String Quartet No15 Op 132
**kern	**dynam	**kern	**dynam	**kern	**dynam	**kern	**dynam	**mxhm
*part4	*part4	*part3	*part3	*part2	*part2	*part1	*part1	*part1
*staff4	*	*staff3	*	*staff2	*	*staff1	*	*
*I"Violoncello	*	*I"Viola	*	*I"Violin II	*	*I"Violin I	*	*
*I'Vc.	*	*I'Vla.	*	*I'Vln. II	*	*I'Vln. I	*	*
*clefF4	*	*clefC3	*	*clefG2	*	*clefG2	*	*
*k[]	*	*k[]	*	*k[]	*	*k[]	*	*
*M4/4	*	*M4/4	*	*M4/4	*	*M4/4	*	*
*met(c)	*	*met(c)	*	*met(c)	*	*met(c)	*	*
!	!	!	!	!	!	!LO:TX:a:B:t=Molto Adagio	!	!
!	!	!	!	!	!	!LO:TX:a:t=Heiliger Dankgesang eines Genesenen an die Gottheit, in der lydischen Tonart.	!	!
*MM60	*	*MM60	*	*MM60	*	*MM60	*	*
!	!	!	!	!	!	!LO:TX:a:t=[quarter]=60	!	!
2r	.	2r	.	2r	.	(4c	.	.C.IV64
!	!	!	!	!	!	!LO:TX:b:i:t=sotto voce	!	!
.	.	.	.	.	.	4a	.	.
=1	=1	=1	=1	=1	=1	=1	=1	=1
!	!	!	!	!LO:TX:b:i:t=sotto voce	!	!	!	!
1r	.	2r	.	(4c	.	4g	.	I
.	.	.	.	4a	.	(4cc	.	IV6
!	!	!LO:TX:b:i:t=sotto voce	!	!	!	!	!	!
.	.	(4C	.	4G) 4e	.	4cc)	.	I
.	.	4A	.	(4c	.	4f	.	IV6
=2	=2	=2	=2	=2	=2	=2	=2	=2
!LO:TX:b:i:t=sotto voce	!	!	!	!	!	!	!	!
(4CC	.	4G	.	4e	.	4g	.	I
4AA)	.	4C) 4c	.	4f)	.	4f)	.	IV6
2FF	.	2C 2c	.	2A	.	2f	.	IV
=3	=3	=3	=3	=3	=3	=3	=3	=3
2AA	.	2C	.	2c	.	2f	.	IV6
2C	.	2G	.	2c	.	2e	.	I
=4	=4	=4	=4	=4	=4	=4	=4	=4
2D	.	2F	.	2A	.	2d	.	ii
2C	.	2G	.	2c	.	2e	.	I
=5	=5	=5	=5	=5	=5	=5	=5	=5
!LO:TX:b:i:t=cresc.	!	!LO:TX:b:i:t=cresc.	!	!LO:TX:b:i:t=cresc.	!	!LO:TX:b:i:t=cresc.	!	!
(2AA	.	(2C	.	(2c	.	2f	.	IV6
4GG	.	4D	.	4B	.	2g	.	I
4C)	.	4E)	.	4e)	.	.	.	.
=6	=6	=6	=6	=6	=6	=6	=6	=6
2D	p	2F	p	2A	p	2f	p	ii
2r	.	2r	.	2r	.	(4aa	.	.
.	.	.	.	.	.	4dd	.	.
=7	=7	=7	=7	=7	=7	=7	=7	=7
2r	.	2r	.	(4a	.	4ee	.	vi
.	.	.	.	[4d	.	4ff	.	ii
(4G	.	(4B	.	4d]	.	4gg	.	V
4BB	.	4D 4d	.	4G)	.	4ff	.	V65
=8	=8	=8	=8	=8	=8	=8	=8	=8
4C	.	4E 4c	.	(4G 4g	.	4ee	.	I
4D)	.	4F)	.	4B)	.	4g)	.	V64
2C	<	2E	<	2c	<	2g	<	I
=9	=9	=9	=9	=9	=9	=9	=9	=9
2FF	.	2F	.	2c	.	2a	.	IV
2EE	.	2G	.	2c 2g	.	2cc	.	I6
=10	=10	=10	=10	=10	=10	=10	=10	=10
2FF	.	2F	.	2c	.	2a	.	IV
2GG	.	2E	.	2c	.	2g	.	I64
=11	=11	=11	=11	=11	=11	=11	=11	=11
2AA	.	2C	.	(4c	.	2f	.	IV6
.	.	.	.	4f	.	.	.	.
(4BB	[ >	(4D	[ >	4G	[ >	2d	[ > ]]	V7
4GG)	p ]]	4F) 4G	]]	4B)	]]	.	.	.
=12	=12	=12	=12	=12	=12	=12	=12	=12
2CC 2GG	.	2E 2G	p	2c	p	2e	p	I\\
(4G	.	2r	.	2r	.	2r	.	.
4C	.	.	.	.	.	.	.	.
=13	=13	=13	=13	=13	=13	=13	=13	=13
4D	.	(4G	.	2r	.	2r	.	I
4E	.	4C	.	.	.	.	.	.
4F	.	4D	.	(4B	.	(4g	.	V43
4E	.	4E	.	4G	.	4c	.	I6
=14	=14	=14	=14	=14	=14	=14	=14	=14
4D	.	4F	.	4B	.	4d	.	viio6
4C)	.	4E)	.	4c)	.	4e)	.	I
2AA	.	2E	.	2c	.	2e	.	vi
=15	=15	=15	=15	=15	=15	=15	=15	=15
!LO:TX:b:i:t=cresc.	!	!	!	!	!	!	!	!
!LO:TX:a:i:t=cresc.	!	!	!	!LO:TX:b:i:t=cresc.	!	!LO:TX:b:i:t=cresc.	!	!
2AA	.	2C	.	2e	.	2cc	.	.
2E	.	2G	.	2e	.	2b	.	iii
=16	=16	=16	=16	=16	=16	=16	=16	=16
2C	.	2E 2G	.	2G 2e	.	2cc	.	I
2F	.	2A	.	2c	.	2a	.	IV
=17	=17	=17	=17	=17	=17	=17	=17	=17
2D	.	2F	.	2f	.	2b	.	viio6
2C	.	2G 2g	.	2c 2e	.	2cc	.	I
=18	=18	=18	=18	=18	=18	=18	=18	=18
2GG	f >	2G 2g	f >	2B 2d	f >	2d 2dd	f >	V
2r	]	2r	]	2r	]	(4gg	] p	I
.	.	.	.	.	.	4cc	.	.
=19	=19	=19	=19	=19	=19	=19	=19	=19
2r	.	4r	.	(4g	p	4dd	.	V
.	.	(4g	p	4c	.	4ee	.	I
(4G	p	4B	.	4d	.	4ff	.	V7
4C	.	4c	.	4e	.	4ee	.	I
=20	=20	=20	=20	=20	=20	=20	=20	=20
4D	.	4F	.	4f	.	4b	.	viio6
4E)	.	4G)	.	4c)	.	4cc)	.	I6
2AA	.	2F	.	2c	.	2cc	.	IV6
=21	=21	=21	=21	=21	=21	=21	=21	=21
!LO:TX:b:i:t=cresc.	!	!LO:TX:b:i:t=cresc.	!	!LO:TX:b:i:t=cresc.	!	!LO:TX:b:i:t=cresc.	!	!
2AA	.	2F	.	2c	.	2cc	.	.
2GG	.	2F	.	2B	.	2dd	.	V7
=22	=22	=22	=22	=22	=22	=22	=22	=22
2C	.	2E	.	2c	.	2g	.	I
2FF	.	2F	.	2c	.	2a	.	IV
=23	=23	=23	=23	=23	=23	=23	=23	=23
2GG	.	(2F	.	(2B	.	2d	.	V7
2CC	>]	4E	>	4G	>	2e	>]	I\\
.	.	4C) 4G	]]	4c)	]]	.	.	.
=24	=24	=24	=24	=24	=24	=24	=24	=24
!	!LO:DY:a	!	!	!	!	!	!	!
2FF	p p	2C	.	2A	p	2f	p	IV
2r	.	2r	.	2r	.	(4cc	.	.
.	.	.	.	.	.	4aa	.	.
=25	=25	=25	=25	=25	=25	=25	=25	=25
2r	.	4r	.	(4c	.	4ee	.	I
.	.	(4C	.	4a	.	4ff)	.	IV64
(4AA	<	4A	.	4cc)	.	(4ff	<	IV6
!	!	!	!	!LO:TX:a:i:t=cresc.	!	!	!	!
4F	.	4a)	.	(4A	.	4dd	.	ii6
=26	=26	=26	=26	=26	=26	=26	=26	=26
4G	.	(4e	.	4G	.	4cc	.	V(64)
4GG)	.	4d)	.	4f)	.	4b)	.	V7
2AA	[ p	2F 2c	p	2f	p	2cc	[ p	IV6
=27	=27	=27	=27	=27	=27	=27	=27	=27
!LO:TX:a:i:t=cresc.	!	!	!	!	!	!	!	!
!LO:TX:b:i:t=cresc.	!	!LO:TX:a:i:t=cresc.	!	!	!	!LO:TX:b:i:t=cresc.	!	!
2AA	.	2F 2c	.	2f	.	2cc	.	.
2GG	.	2f	.	2B	.	2dd	.	V7
=28	=28	=28	=28	=28	=28	=28	=28	=28
2C	.	2e	.	2c	.	2g	.	I
2FF	.	2f	.	2A	.	2a	.	IV
=29	=29	=29	=29	=29	=29	=29	=29	=29
2D	p	2F	p	2A	p	2f	p	ii
2GG	.	2D	.	2B	.	2g	.	V
=30	=30	=30	=30	=30	=30	=30	=30	=30
!LO:TX:b:i:t=cresc.	!	!LO:TX:b:i:t=cresc.	!	!LO:TX:b:i:t=cresc.	!	!LO:TX:b:i:t=cresc.	!	!
(4AA'	.	(4A'	.	(4c#X'	.	2e	.	V/ii
4AA'	.	4A'	.	4a'	.	.	.	.
4AA'	.	4A'	.	4a'	.	(4aa'	.	II.V
!	!	!	!	!	!	!LO:TX:a:t=Andante	!	!
4AA')	.	4A')	.	4a')	.	4aa')	.	.
=31||	=31||	=31||	=31||	=31||	=31||	=31||	=31||	=31||
*k[f#c#]	*	*k[f#c#]	*	*k[f#c#]	*	*k[f#c#]	*	*
*M3/8	*	*M3/8	*	*M3/8	*	*M3/8	*	*
!	!	!	!	!	!	!LO:TX:a:t=Neue Kraft fühlend	!	!
8DD'L	f	8F#'L 8A	f	8dd'	f	4.aa	f	I
8D'J	.	8f#'J	.	8d'	.	.	.	.
!	!	!	!	!LO:TX:a:t=ten.	!	!	!	!
8r	.	8r	.	8ff#	sf	.	.	.
=32	=32	=32	=32	=32	=32	=32	=32	=32
8C#'L	p	8A'L	p	16r	.	[4.aaT	p	V6
.	.	.	.	16ee	p	.	.	.
8c#'J	.	8e'J 8a	.	32r	.	.	.	.
.	.	.	.	(32aLLL	.	.	.	.
.	.	.	.	32dd	.	.	.	.
.	.	.	.	32cc#	.	.	.	.
8r	.	8r	.	32b	.	.	.	.
.	.	.	.	32a	.	.	.	.
.	.	.	.	32b	.	.	.	.
.	.	.	.	32cc#JJJ)	.	.	.	.
=33	=33	=33	=33	=33	=33	=33	=33	=33
!	!LO:DY:a	!	!	!	!	!	!	!
8BB'L	f f	8F#'L	.	8dd'L	f	4.aa_	f	vi7
8B'J	.	8d'J 8f#	.	8d'	.	.	.	.
!	!	!	!	!LO:TX:a:t=ten.	!	!	!	!
8r	.	8r	.	8ddJ	.	.	.	.
=34	=34	=34	=34	=34	=34	=34	=34	=34
!	!	!	!	!	!	!LO:TX:a:t=p cresc.	!	!
8AA'L	p	8F#'L	p	16r	.	4.aa]	.	iii6
.	.	.	.	16cc#	p	.	.	.
8A'J	.	8f#'J 8cc#	.	32r	.	.	.	.
.	.	.	.	(32f#LLL	.	.	.	.
.	.	.	.	32b	.	.	.	.
.	.	.	.	32a	.	.	.	.
8r	.	8r	.	32g	.	.	.	.
.	.	.	.	32f#	.	.	.	.
.	.	.	.	32g	.	.	.	.
.	.	.	.	32aJJJ)	.	.	.	.
.	.	.	.	.	.	32qqgg/LLL	.	.
.	.	.	.	.	.	32qqaa/JJJ	.	.
=35	=35	=35	=35	=35	=35	=35	=35	=35
8GG'L	f	8B'L	f	8d'	f	8bb'	f	IV
8G'J	.	8d'J 8b	.	8dd'	.	8G'	.	.
!	!	!	!	!	!	!LO:TX:a:t=ten.	!	!
8r	.	8r	.	8r	.	8bb	sf	.
=36	=36	=36	=36	=36	=36	=36	=36	=36
8F#'L	p	8d'L	p	8a'L	p	16r	.	I6
.	.	.	.	.	.	16aa	p	.
8f#'J	.	8dd'J	.	8aa'J	.	32r	.	.
.	.	.	.	.	.	32aa'LLL	.	.
.	.	.	.	.	.	32bb'	.	.
.	.	.	.	.	.	32ccc#'	.	.
[8BB	.	[8D	.	8r	.	32ddd'	.	vi
.	.	.	.	.	.	32eee'	.	.
.	.	.	.	.	.	32fff#'	.	.
.	.	.	.	.	.	32ggg'JJJ	.	.
=37	=37	=37	=37	=37	=37	=37	=37	=37
!LO:TX:b:i:t=cresc.	!	!LO:TX:b:i:t=cresc.	!	!	!	!LO:TX:b:i:t=cresc.	!	!
(8BBL]	.	(8DL]	.	16r	.	(8aaaL	.	vi7
!	!	!	!	!LO:TX:b:i:t=cresc.	!	!	!	!
.	.	.	.	(16ddLL	.	.	.	.
8C#	.	8E	.	16a	.	8ggg	.	V65
.	.	.	.	16ee	.	.	.	.
8DJ)	.	8F#J)	.	16a	.	8fff#J)	.	I
.	.	.	.	16ddJJ)	.	.	.	.
=38	=38	=38	=38	=38	=38	=38	=38	=38
(8EL	.	(8A	.	(16cc#LL	.	(16eeeLL	.	V64
.	.	.	.	16c#	.	16eeJ	.	.
8GG#X	>	8.EL	>	16d	>	8.bb	>	V7
.	.	.	.	16e	.	.	.	.
8AAJ)	]]	.	.	16c#	.	.	.	.
.	.	16GnJk)	]]	16eJJ)	]]	16aaJk)	]]	.
=39	=39	=39	=39	=39	=39	=39	=39	=39
8DD'L	f	8F#'	f	8f#' 8dd	f	4.aaT	f	I
8D'J	.	8f#'	.	8d'	.	.	.	.
!	!	!	!	!LO:TX:a:t=ten.	!	!	!	!
8r	.	8r	.	8ff#	.	.	.	.
.	.	.	.	.	.	32qqgg#X/LLL	.	.
.	.	.	.	.	.	32qqaa/JJJ	.	.
=40	=40	=40	=40	=40	=40	=40	=40	=40
8C#'L	p	8E'	p	16r	.	16aa	p	V6
.	.	.	.	16ee	p	16A	.	.
8c#'J	.	8a'	.	32r	.	16r	.	.
.	.	.	.	(32aLLL	.	.	.	.
.	.	.	.	32dd	.	[16eeeLL	.	.
.	.	.	.	32cc#	.	.	.	.
8r	.	8r	.	32b	.	32eeeL]	.	.
.	.	.	.	32a	.	(64dddL	.	.
.	.	.	.	.	.	64ccc#J)	.	.
.	.	.	.	32b	.	32bb'	.	.
.	.	.	.	32cc#JJJ)	.	32aa'JJJ	.	.
=41	=41	=41	=41	=41	=41	=41	=41	=41
8BB'L	f	8D'L	f	8dd'	f	4.aaT	f	vi7
8B'J	.	8d'J	.	8d'	.	.	.	.
!	!	!	!	!LO:TX:a:t=ten.	!	!	!	!
8r	.	8r	.	8ddd	.	.	.	.
.	.	.	.	.	.	32qqgg#X/LLL	.	.
.	.	.	.	.	.	32qqaa/JJJ	.	.
=42	=42	=42	=42	=42	=42	=42	=42	=42
8AA'L	p	8F#'L	p	16r	.	16aa	p	iii6
.	.	.	.	16ccc#	p	16f#	.	.
8A'J	.	8f#'J	.	32r	.	16r	.	.
.	.	.	.	(32ff#LLL	.	.	.	.
.	.	.	.	32bb	.	[16ccc#LL	.	.
.	.	.	.	32aa	.	.	.	.
16r	.	16r	.	32gg	.	32ccc#L]	.	.
.	.	.	.	32ff#	.	(64bbL	.	.
.	.	.	.	.	.	64aaJ)	.	.
16A	.	16cn 16d	.	32gg	.	32gg'	.	V43/IV
.	.	.	.	32aaJJJ)	.	32ff#'JJJ	.	.
=43	=43	=43	=43	=43	=43	=43	=43	=43
8GGn'L	f	8G'L	f	8b'L	f	8bb'	f	IV
8GnJ	.	8d'J 8b	.	8bb'J	.	8G'	.	.
!	!	!	!	!	!	!LO:TX:a:t=ten.	!	!
8r	.	8r	.	8r	.	8bb	sf	.
=44	=44	=44	=44	=44	=44	=44	=44	=44
8FF#'L	p	8A'L 8d	p	8a'L	p	16r	.	I6
.	.	.	.	.	.	8qqbb/	p	.
.	.	.	.	.	.	(32aa	.	.
.	.	.	.	.	.	32gg#X)	.	.
8F#'J	.	8dd'J	.	8aa'J	.	32r	.	.
.	.	.	.	.	.	32aa	.	.
.	.	.	.	.	.	8qqaa/	.	.
.	.	.	.	.	.	(32bb	.	.
.	.	.	.	.	.	32ccc#)	.	.
.	.	.	.	.	.	8qqccc#/	.	vi
[8BB	.	[8D	.	8r	.	(32ddd	.	.
.	.	.	.	.	.	32eee)	.	.
.	.	.	.	.	.	8qqeee/	.	.
.	.	.	.	.	.	(32fff#LLL	.	.
.	.	.	.	.	.	32gggnJJJ)	.	.
=45	=45	=45	=45	=45	=45	=45	=45	=45
!LO:TX:b:i:t=cresc.	!	!LO:TX:b:i:t=cresc.	!	!LO:TX:b:i:t=cresc.	!	!LO:TX:b:i:t=cresc.	!	!
(8BBL]	.	(8DL]	.	16r	.	(8aaaL	.	vi7
.	.	.	.	32qqcc#/	.	.	.	.
.	.	.	.	16dd	.	.	.	.
8C#	.	8E	.	16r	.	8ggg	.	V65
.	.	.	.	32qqgg#X/	.	.	.	.
.	.	.	.	16aa	.	.	.	.
8DJ	.	8F#J)	.	16r	.	8fff#J	.	I
.	.	.	.	32qqg#X/	.	.	.	.
.	.	.	.	16a	.	.	.	.
=46	=46	=46	=46	=46	=46	=46	=46	=46
*	*	*^	*	*	*	*	*	*
8EL	.	8c#L	4.E	.	16r	.	16eeeLL	.	V64
.	.	.	.	.	32qqg#X/	.	.	.	.
.	.	.	.	.	16a	.	16eeJ)	.	.
.	.	.	.	.	.	.	32qqee/	>	.
8GG#X	>	8d	.	>	16r	>	(8.bb	.	V
.	.	.	.	.	32qqd#X/	.	.	.	.
.	.	.	.	.	16e	.	.	.	.
16AAL	.	16c#L	.	.	16r	.	.	.	.
.	.	.	.	.	32qqdd#X/	.	.	.	.
16BBJJ)	]]	16dJJ	.	.	16ee	]]	32aaLL	.	V43/V
.	.	.	.	.	.	.	32gg#XJJJ)	]]	.
*	*	*v	*v	*	*	*	*	*	*
=47	=47	=47	=47	=47	=47	=47	=47	=47
16C#'LL	p	16E'LL	] p	(8eeL	p	8ggn	p	V65
16c#'JJ	.	16e'JJ	.	.	.	.	.	.
16r	.	16r	.	8a	.	8r	.	IV6(2)
16B	.	16d	.	.	.	.	.	.
16r	.	16r	.	8gnTJ)	.	8r	.	viio
16c#	.	16e	.	.	.	.	.	.
=48	=48	=48	=48	=48	=48	=48	=48	=48
16r	.	16r	.	4f#	.	(8dddL	.	I
16D	.	16F# 16A	.	.	.	.	.	.
16r	.	16r	.	.	.	8gg	.	viio6(+4)
16E	.	16c#	.	.	.	.	.	.
16r	.	16r	.	8r	.	8ff#tJ)	.	I
16D	.	16d	.	.	.	.	.	.
=49	=49	=49	=49	=49	=49	=49	=49	=49
16AALL	.	16C#LL	.	(8eeL	.	8ee	.	V
16AJJ	.	16c#JJ	.	.	.	.	.	.
16r	.	16r	.	16aL)	.	8r	.	vi7
16B	.	16d	.	16a'JJ	.	.	.	.
16r	.	16r	.	8gT	.	8r	.	viio
16c#	.	16e	.	.	.	.	.	.
=50	=50	=50	=50	=50	=50	=50	=50	=50
16r	.	16r	.	(16f#LL	.	(8dddL	.	I
16d	.	16f#	.	16dd	.	.	.	.
16r	.	16r	.	16cc#	.	16ggL)	.	V43
16e	.	16cc#	.	[16aaJJ)	.	16gg'JJ	.	.
16r	.	16r	.	32aaLLL]	.	(16ff#tLL	.	I
.	.	.	.	(32d	.	.	.	.
16d	.	16dd	.	32e	.	32ggL	.	.
.	.	.	.	32f#JJJ)	.	32aaJJJ)	.	.
=51	=51	=51	=51	=51	=51	=51	=51	=51
16r	.	16r	pp	16r	pp	(32aa#XLLL	pp	IV
.	.	.	.	.	.	32bJJJ)	.	.
32GnLLL	pp	32BLLL 32d	.	32GLLL 32b	.	32r	.	.
32GJJJ	.	32BJJJ 32d	.	32GJJJ 32b	.	32bb	.	.
16r	.	16r	.	16r	.	(32ff#LLL	.	.
.	.	.	.	.	.	32gJJJ)	.	.
32GLLL	.	32BLLL 32d	.	32GLLL 32b	.	32r	.	.
32GJJJ	.	32BJJJ 32d	.	32GJJJ 32b	.	32gg	.	.
16r	.	16r	.	16r	.	(32dd#XLLL	.	.
.	.	.	.	.	.	32eJJJ)	.	.
32GLLL	.	32BLLL 32e	.	32GLLL 32b	.	32r	.	ii6
32GJJJ	.	32BJJJ 32e	.	32GJJJ 32b	.	32ee	.	.
=52	=52	=52	=52	=52	=52	=52	=52	=52
16r	.	16r	.	16r	.	(32ddnLLL	.	V7
.	.	.	.	.	.	32eJJJ)	.	.
32ALLL	.	32c#LLL 32e	.	32gLLL 32a	.	32r	.	.
32AJJJ	.	32c#JJJ 32e	.	32gJJJ 32a	.	32cc#	.	.
16r	.	16r	.	16r	.	(32ddLLL	.	.
.	.	.	.	.	.	32eJJJ)	.	.
32ALLL	.	32c#LLL 32e	.	32gLLL 32a	.	32r	.	.
32AJJJ	.	32c#JJJ 32e	.	32gJJJ 32a	.	32ee	.	.
16r	.	16r	.	16r	.	(32ff#LLL	.	.
.	.	.	.	.	.	32gJJJ)	.	.
32ALLL	.	32c#LLL 32e	.	32gLLL 32a	.	32r	.	.
32AJJJ	.	32c#JJJ 32e	.	32gJJJ 32a	.	32gg	.	.
=53	=53	=53	=53	=53	=53	=53	=53	=53
!	!	!	!	!	!	!LO:TX:b:i:t=cresc.	!	!
16r	.	16r	.	16r	.	(32gg#XLLL	.	V65
.	.	.	.	.	.	32eeJJJ)	.	.
!LO:TX:b:i:t=cresc.	!	!LO:TX:b:i:t=cresc.	!	!LO:TX:b:i:t=cresc.	!	!	!	!
32C#LLL	.	32GLLL 32e	.	32gLLL 32a	.	32r	.	.
32C#JJJ	.	32EJJJ 32G	.	32gJJJ 32a	.	32aan	.	.
16r	.	16r	.	16r	.	(32aa#XLLL	.	.
.	.	.	.	.	.	32eeJJJ)	.	.
32C#LLL	.	32ELLL 32G	.	32gLLL 32a	.	32r	.	.
32C#JJJ	.	32EJJJ 32G	.	32gJJJ 32a	.	32bb	.	.
16r	.	16r	.	16r	.	(32aa#LLL	.	.
.	.	.	.	.	.	32eeJJJ)	.	.
32C#LLL	.	32ELLL 32G	.	32gLLL 32a	.	32r	.	.
32C#JJJ	.	32EJJJ 32G	.	32gJJJ 32a	.	32aan	.	.
=54	=54	=54	=54	=54	=54	=54	=54	=54
16r	.	16r	.	16r	.	(32bb-XLLL	.	.
.	.	.	.	.	.	32eeJJJ)	.	.
32C#LLL	.	32ELLL 32G	.	32gLLL 32a	.	32r	.	.
32C#JJJ	.	32EJJJ 32G	.	32gJJJ 32a	.	32bbn	.	.
16r	.	16r	.	16r	.	(32bb-XLLL	.	.
.	.	.	.	.	.	32eeJJJ)	.	.
32C#LLL	.	32ELLL 32G	.	32gLLL 32a	.	32r	.	.
32C#JJJ	.	32EJJJ 32G	.	32gJJJ 32a	.	32aa	.	.
16r	.	16r	.	16r	.	(32bb-LLL	.	.
.	.	.	.	.	.	32eeJJJ)	.	.
32GGLLL	.	32ELLL 32c#	.	32c#LLL 32e	.	32r	.	vii%43
32GGJJJ	.	32EJJJ 32c#	.	32bJJJ	.	32bbn	.	.
=55	=55	=55	=55	=55	=55	=55	=55	=55
(8GGL	rfz	(8EL 8c#	rfz	(8bL	rfz	(8bbL	rfz	.
*	*	*	*	*^	*	*	*	*
8GG#X	.	8D) 8B	.	8dJ) 8f#	8r	.	8ddd	.	#vii%7/V
[8AAJ)	.	8DJ 8d	.	[8f#	[8A	.	8fff#J	.	V(64)
=56	=56	=56	=56	=56	=56	=56	=56	=56	=56
(8AAL]	.	(8F#L 8d	.	8f#L]	8AL]	.	16aaaLL	.	.
.	.	.	.	.	.	.	16aaJJ	.	.
8CC#	.	[8GJ)	.	[8a	[8AJ	.	[8eee)	.	V43
16DDL	>	(32GLLL]	>	(32aLL]	32A]	>	32eeeLLL]	>	I(94)
*	*	*	*	*v	*v	*	*	*	*
.	.	32F#	.	32dd	.	(32ddd	.	I
16AAJJ)	]]	32E	.	32cc#	.	32eee	.	V
.	.	32DJJJ)	]]	32ddJJJ)	.	32fff#JJJ)	]]	V(64)
=57	=57	=57	=57	=57	=57	=57	=57	=57
!	!LO:DY:a	!	!LO:DY:a	!	!	!	!	!
16AALL	p p	16C#LL	p	(8eeL	]	8ggg	p	V7
16AJJ	.	16c#JJ	.	.	.	.	.	.
16r	.	16r	.	16aL)	.	8r	.	vi7
16B	.	16d	.	16a'JJ	.	.	.	.
16r	.	16r	.	8gT	.	8r	.	viio
16c#	.	16e	.	.	.	.	.	.
=58	=58	=58	=58	=58	=58	=58	=58	=58
16r	.	16r	.	4f#	.	(8dddL	.	I
16D	.	16F# 16A	.	.	.	.	.	.
16r	.	16r	.	.	.	16ggL)	.	viio6
16E	.	16c#	.	.	.	16gg'J	.	.
16r	.	16r	.	8r	.	8ff#tJ	.	I
16D	.	16d	.	.	.	.	.	.
=59	=59	=59	=59	=59	=59	=59	=59	=59
16ALL	.	16c#LL 16e	.	32ee'LLL	.	8ee	.	V
.	.	.	.	(32ee	.	.	.	.
16AAJJ	.	16c#JJ	.	32ff#	.	.	.	.
.	.	.	.	32eeJJJ)	.	.	.	.
16r	.	16r	.	32a'LLL	.	8r	.	V(94)
.	.	.	.	(32a	.	.	.	.
16A	.	16B 16d	.	32b	.	.	.	.
.	.	.	.	32aJJJ)	.	.	.	.
16r	.	16r	.	8gT	.	8r	.	V7
16A	.	16c# 16e	.	.	.	.	.	.
=60	=60	=60	=60	=60	=60	=60	=60	=60
16r	.	16r	.	16f#'LL	.	32ddd'LLL	.	I
.	.	.	.	.	.	(32ddd	.	.
16d	.	16f#	.	16ff#'	.	32eee	.	.
.	.	.	.	.	.	32dddJJJ)	.	.
16r	.	16r	.	16cc#'	.	32gg'LLL	.	viio6
.	.	.	.	.	.	(32gg	.	.
16e	.	16cc#	.	[16aaJJ	.	32aa	.	V43
.	.	.	.	.	.	32ggJJJ)	.	.
16r	.	16r	.	32aaLLL]	.	(32ff#'LLL	.	I
.	.	.	.	.	.	32qqgg/LLL	.	.
.	.	.	.	.	.	32qqff#/	.	.
.	.	.	.	.	.	32qqee/JJJ	.	.
.	.	.	.	(32a	.	32ff#	.	.
16d	.	16dd	.	32g	.	32gg	.	.
.	.	.	.	32f#JJJ)	.	32aaJJJ)	.	.
=61	=61	=61	=61	=61	=61	=61	=61	=61
16r	.	16r	.	32GLLL 32g	pp	(32aa#XLLL	pp	IV
.	.	.	.	32GJJJ 32g	.	32bJJJ)	.	.
!	!LO:DY:a	!	!	!	!	!	!	!
32GLLL	pp pp	32BLLL 32d	.	16r	.	32r	.	.
32GJJJ	.	32BJJJ 32d	.	.	.	32bb	.	.
16r	.	16r	.	32GLLL 32b	.	(32ff#LLL	.	.
.	.	.	.	32GJJJ 32b	.	32gJJJ)	.	.
32GLLL	.	32BLLL 32d	.	16r	.	32r	.	.
32GJJJ	.	32BJJJ 32d	.	.	.	32gg	.	.
16r	.	16r	.	32GLLL 32b	.	(32dd#XLLL	.	ii6
.	.	.	.	32GJJJ 32b	.	32eJJJ)	.	.
32GLLL	.	32BLLL 32g	.	16r	.	32r	.	.
32GJJJ	.	32BJJJ 32g	.	.	.	32ee	.	.
=62	=62	=62	=62	=62	=62	=62	=62	=62
16r	.	16r	.	32gLLL 32a	.	(32ddnLLL	.	V7
.	.	.	.	32gJJJ 32a	.	32eJJJ)	.	.
32ALLL 32g	.	32c#LLL 32e	.	16r	.	32r	.	.
32AJJJ 32g	.	32c#JJJ 32e	.	.	.	32cc#	.	.
16r	.	16r	.	32gLLL 32a	.	(32ddLLL	.	.
.	.	.	.	32gJJJ 32a	.	32eJJJ)	.	.
32ALLL 32g	.	32c#LLL 32e	.	16r	.	32r	.	.
32AJJJ 32g	.	32c#JJJ 32e	.	.	.	32ee	.	.
16r	.	16r	.	32gLLL 32a	.	(32ff#LLL	.	.
.	.	.	.	32gJJJ 32a	.	32gJJJ)	.	.
32ALLL 32g	.	32c#LLL 32e	.	16r	.	32r	.	.
32AJJJ 32g	.	32c#JJJ 32e	.	.	.	32gg	.	.
=63	=63	=63	=63	=63	=63	=63	=63	=63
!	!	!	!	!LO:TX:b:i:t=cresc.	!	!LO:TX:b:i:t=cresc.	!	!
16r	.	16r	.	32eLLL 32ee	.	(32gg#XLLL	.	V65
.	.	.	.	32eJJJ 32ee	.	32eeJJJ)	.	.
!LO:TX:b:i:t=cresc.	!	!LO:TX:b:i:t=cresc.	!	!	!	!	!	!
32ALLL 32g	.	32C#LLL 32G	.	16r	.	32r	.	.
32AJJJ 32g	.	32C#JJJ 32G	.	.	.	32aan	.	.
16r	.	16r	.	32eLLL 32ee	.	(32aa#XLLL	.	.
.	.	.	.	32eJJJ 32ee	.	32eeJJJ)	.	.
32ALLL 32g	.	32C#LLL 32G	.	16r	.	32r	.	.
32AJJJ 32g	.	32C#JJJ 32G	.	.	.	32bb	.	.
16r	.	16r	.	32eLLL 32ee	.	(32aa#LLL	.	.
.	.	.	.	32eJJJ 32ee	.	32eeJJJ)	.	.
32ALLL 32g	.	32C#LLL 32G	.	16r	.	32r	.	.
32AJJJ 32g	.	32C#JJJ 32G	.	.	.	32aan	.	.
=64	=64	=64	=64	=64	=64	=64	=64	=64
16r	.	16r	.	32eLLL 32ee	.	(32aa#XLLL	.	.
.	.	.	.	32eJJJ 32ee	.	32eeJJJ)	.	.
32ALLL 32g	.	32C#LLL 32G	.	16r	.	32r	.	.
32AJJJ 32g	.	32C#JJJ 32G	.	.	.	32bb	.	.
16r	.	16r	.	32eLLL 32ee	.	(32aa#LLL	.	.
.	.	.	.	32eJJJ 32ee	.	32eeJJJ)	.	.
32ALLL 32g	.	32C#LLL 32G	.	16r	.	32r	.	.
32AJJJ 32g	.	32C#JJJ 32G	.	.	.	32aan	.	.
16r	.	16r	.	32eLLL 32cc#	.	(32aa#XLLL	.	.
.	.	.	.	32eJJJ 32cc#	.	32eeJJJ)	.	.
32GGLLL	.	32ELLL 32c#	.	32c#LLL 32e	.	32r	.	vii%43
32GGJJJ	.	32EJJJ 32c#	.	32c#JJJ 32e	.	32bb	.	.
=65	=65	=65	=65	=65	=65	=65	=65	=65
!	!LO:DY:a	!	!	!	!	!	!	!
(8GGL	rfz rfz	(8EL 8c#	.	(8bL	rfz	(8bbL	rfz	.
*	*	*	*	*^	*	*	*	*
8GG#X	.	8D) 8B	.	8d) 8f#	8r	.	8ddd	.	#vii%7/V
[8AAJ)	.	8DJ 8d	.	[8f#J	(8A	.	8fff#J	.	V(64)
=66	=66	=66	=66	=66	=66	=66	=66	=66	=66
(8AAL]	.	8F#L 8d	.	8f#L]	8AL)	.	16aaanLL	.	.
.	.	.	.	.	.	.	16aanJ)	.	.
8CC#	.	[8GJ	.	[8aJ	[8AJ	.	[8eeeJ	.	V65
16DDL	>	(32GLLL]	>	(32aLLL]	32A]	>	(32eeeLLL]	>	I(94)
*	*	*	*	*v	*v	*	*	*	*
.	.	32F#	.	32dd	.	32ddd	.	I
16DJJ)	]]	32E	.	32g	.	32ccc#	.	I(9+74)
.	.	32DJJJ)	]]	32f#JJJ)	.	32dddJJJ)	]]	I
=67	=67	=67	=67	=67	=67	=67	=67	=67
(16CnLL	p	(8F#	p	(8f#L	] p	(4ddd	p	IV6
16AA#X	.	.	.	.	.	.	.	.
16BB	.	4D)	.	8dd	.	.	.	.
16C	.	.	.	.	.	.	.	.
16D	.	.	.	8dJ)	.	8ff#	.	V2/IV
16CJJ)	.	.	.	.	.	.	.	.
=68	=68	=68	=68	=68	=68	=68	=68	=68
(16CnLL	.	[4.D	.	8r	.	4.gg)	.	IV6
16AA#X	.	.	.	.	.	.	.	.
16BB	.	.	.	(8dL	.	.	.	.
16C#X	.	.	.	.	.	.	.	.
16D	.	.	.	8gJ)	.	.	.	.
16BBJJ)	.	.	.	.	.	.	.	.
=69	=69	=69	=69	=69	=69	=69	=69	=69
(16BBLL	.	4.D_	.	8r	.	4ff#	.	I64
16GG#X	.	.	.	.	.	.	.	.
16AAn	.	.	.	(8dL	.	.	.	.
16C#	.	.	.	.	.	.	.	.
16D	.	.	.	8f#J)	.	(16ff#LL	.	.
16AAJJ)	.	.	.	.	.	32ggL	.	.
.	.	.	.	.	.	32aaJJJ)	.	.
=70	=70	=70	=70	=70	=70	=70	=70	=70
(16AALL	.	4.D_	.	8r	.	8bbL	.	IV
16FF#	.	.	.	.	.	.	.	.
16GGn	.	.	.	(8dL	.	8bbJ	.	.
16C#	.	.	.	.	.	.	.	.
16D	.	.	.	8bJ)	.	(16bbLL	.	.
16GGJJ)	.	.	.	.	.	32ccc#L	.	.
.	.	.	.	.	.	32dddJJJ)	.	.
=71	=71	=71	=71	=71	=71	=71	=71	=71
(16GGLL	<	16DLL]	<	16r	<	(8dddL	<	.
16EE#X	.	(16c#	.	(16cc#LL	.	.	.	.
16FF#	.	16d	.	16dd	.	8aa	.	I6
16EEn	.	16c#	.	16cc#	.	.	.	.
16DD	[ >	16d	[ >	16dd	[ >	8ff#J)	[ > ]]	I[viio6/IV
16DJJ)	]]	16cnJJ)	]]	16ccnJJ)	]]	.	.	.
=72	=72	=72	=72	=72	=72	=72	=72	=72
(16DDLL	.	(16cnLL	.	(16ccnLL	.	[8ggL	.	IV6(4)
16D	.	16A#X	.	16a#X	.	.	.	.
16DD	.	16B	.	16b	.	(24ggL]	.	IV6
.	.	.	.	.	.	24gg	.	.
16D	.	16c	.	16cc	.	.	.	.
.	.	.	.	.	.	24aaJJ	.	.
16DD	.	16d	.	16dd	.	24bbLL	.	.
.	.	.	.	.	.	24aa	.	.
16DJJ)	.	16BJJ)	.	16bJJ)	.	.	.	.
.	.	.	.	.	.	24ggJJ)	.	.
=73	=73	=73	=73	=73	=73	=73	=73	=73
(16DDLL	.	(16BLL	.	(16bLL	.	(16ggKL	.	.
16D	.	16G#X	.	16g#X	.	8ff#	.	viio6/IV
16DD	.	16An	.	16an	.	.	.	.
16D	.	16c#X	.	16cc#X	.	16ff#Jk)	.	V64/vi
16DD	.	16d	.	16dd	.	(16ff#tLL	.	vi6
16DJJ)	.	[16AJJ)	.	[16aJJ)	.	32ggL	.	.
.	.	.	.	.	.	32aaJJJ)	.	.
=74	=74	=74	=74	=74	=74	=74	=74	=74
(16DDLL	.	(16ALL]	.	(16aLL]	.	(32aa#XLLL	.	vi64
.	.	.	.	.	.	32bbJJ)	.	.
16D	.	16F#	.	16f#	.	8bb	.	IV
16DD	.	16Gn	.	16gn	.	.	.	.
16D	.	16c#	.	16cc#	.	16bbJk	.	.
16DD	.	16d	.	16dd	.	(16bbTLL	.	vi6
.	.	.	.	.	.	32qqaa#/LLL	.	IV
.	.	.	.	.	.	32qqbb/JJJ	.	.
16DJJ)	.	16GJJ)	.	16gJJ)	.	32ccc#L	.	.
.	.	.	.	.	.	32dddJJJ)	.	.
=75	=75	=75	=75	=75	=75	=75	=75	=75
!LO:TX:b:i:t=cresc.	!	!LO:TX:b:i:t=cresc.	!	!LO:TX:b:i:t=cresc.	!	!LO:TX:b:i:t=cresc.	!	!
(16DDLL	.	(16GLL	.	(16gLL	.	(16dddKL	.	.
16D	.	16F#	.	16f#	.	8aan	.	I6
16FF#	.	16d	.	16dd	.	.	.	.
16D	.	16A#X	.	16a#X	.	16aa#XL	.	I+
16GG#X	.	16D	.	16cc#	.	16ccc#	.	#vii%7(4)/V
16DJJ)	.	16BJJ)	.	16bJJ)	.	16bbJJ)	.	#vii%7/V
=76	=76	=76	=76	=76	=76	=76	=76	=76
(16AALL	.	(16dLL	.	(16ddLL	.	(8bbL	.	V(64+2)
16D	.	16F#	.	16f#)	.	.	.	.
16AA	.	16An	.	(16f#	.	8.dd	.	V7
16D	>	16F#	>	16An	>	.	.	.
16AA	.	16A	.	16g	.	.	.	.
16C#JJ)	]]	16GJJ)	]]	16AJJ)	]]	16eeJk)	>]	.
=77	=77	=77	=77	=77	=77	=77	=77	=77
(8AAL	p	32F#LLL	p	32f#LLL	p	(8eeL	p	V(964)
.	.	(32d	.	(32dd	.	.	.	.
.	.	32f#	.	32ff#	.	.	.	.
.	.	32eJJJ	.	32eeJJJ	.	.	.	.
!LO:TX:b:i:t=cresc.	!	!LO:TX:b:i:t=cresc.	!	!LO:TX:b:i:t=cresc.	!	!LO:TX:b:i:t=cresc.	!	!
8DD	.	32dLLL	.	32ddLLL	.	8ff#	.	I
.	.	32c#	.	32cc#	.	.	.	.
.	.	32B	.	32b	.	.	.	.
.	.	32AJJJ	.	32aJJJ	.	.	.	.
8EEJ	.	32GLLL	.	32gLLL	.	8ggJ	.	viio6
.	.	32e	.	32ee	.	.	.	.
.	.	32c#	.	32cc#	.	.	.	.
.	.	32GJJJ	.	32gJJJ	.	.	.	.
=78	=78	=78	=78	=78	=78	=78	=78	=78
8FF#L	.	32F#LLL	.	32f#LLL	.	8aanL	.	I6
.	.	32d	.	32dd	.	.	.	.
.	.	32A	.	32a	.	.	.	.
.	.	32F#JJJ	.	32f#JJJ	.	.	.	.
8GG#X	.	32FnLLL	.	32fnLLL	.	8bb	.	#viio7/V
.	.	32d	.	32dd	.	.	.	.
.	.	32B	.	32b	.	.	.	.
.	.	32FJJJ	.	32fJJJ	.	.	.	.
8AAJ)	>]	32ELLL	>	32eLLL	>	8ccc#J)	>]	V7
.	.	32c#	.	32cc#	.	.	.	.
.	.	32G	.	32g	.	.	.	.
.	.	32EJJJ)	]]	32eJJJ)	]]	.	.	.
=79	=79	=79	=79	=79	=79	=79	=79	=79
(32DLLL	p	(8F#X	p	(8f#X	p	8dddL	p	I\\
32F#	.	.	.	.	.	.	.	.
32A	.	.	.	.	.	.	.	.
32GnJJJ	.	.	.	.	.	.	.	.
!LO:TX:b:i:t=cresc.	!	!LO:TX:b:i:t=cresc.	!	!LO:TX:b:i:t=cresc.	!	!LO:TX:a:i:t=cresc.	!	!
32F#LLL	.	[4D)	.	[4d) [4dd	.	(16aaL	.	I
32E	.	.	.	.	.	.	.	.
32D	.	.	.	.	.	16ff#)	.	V2/IV
32CnJJJ	.	.	.	.	.	.	.	.
32BBLLL	.	.	.	.	.	(16ff#	.	IV6
32G	.	.	.	.	.	.	.	.
32D	.	.	.	.	.	16ggJJ)	.	.
32BBJJJ	.	.	.	.	.	.	.	.
=80	=80	=80	=80	=80	=80	=80	=80	=80
32AALLL	.	8DL]	.	8dL] 8dd]	.	(16gg#XLL	.	V(64)
32F#	.	.	.	.	.	.	.	.
32D	.	.	.	.	.	16aaJJ)	.	.
32AAJJJ	.	.	.	.	.	.	.	.
32GG#XLLL	.	(8D	.	(8d 8dd	.	(16aa#XLL	.	#viio7/V
32Fn	.	.	.	.	.	.	.	.
32D	.	.	.	.	.	16bbJJ)	.	.
32GG#JJJ	.	.	.	.	.	.	.	.
32GGnLLL	>	[8EJ)	>]	8eJ) [8ee	>]	(16bbLL	>	viio6
32AA	.	.	.	.	.	.	.	.
32GG	.	.	.	.	.	16ccc#JJ)	]]	.
32EEJJJ)	]]	.	.	.	.	.	.	.
=81	=81	=81	=81	=81	=81	=81	=81	=81
(32DDLLL	p	(16ELL]	p	(16eeLL]	p	(16ccc#LL	p	I(9+7)
32AA	.	.	.	.	.	.	.	.
32FF#X	.	16F#JJ)	.	16ff#JJ)	.	16dddJJ)	.	I
32DDJJJ)	.	.	.	.	.	.	.	.
!LO:TX:b:i:t=piu p	!	!LO:TX:b:i:t=piu p	!	!LO:TX:b:i:t=piu p	!	!LO:TX:b:i:t=piu p	!	!
8DD'L	.	8D'L	.	8dd'L	.	8ddd'L	.	.
(8DD'J	.	(8D'J	.	(8dd'J	.	(8ddd'J	.	.
=82	=82	=82	=82	=82	=82	=82	=82	=82
8DD')	.	8D')	.	8dd')	.	8ddd')	.	.
8r	.	8r	.	8r	.	8r	.	.
(8E'	pp	(8G'	pp	(8ccn'	pp	(8cccn'	pp	I.I6
=83	=83	=83	=83	=83	=83	=83	=83	=83
8E')	.	8G')	.	8ccn')	.	8cccn')	.	.
8r	.	8r	.	8r	.	8r	.	.
8Fn	.	8A	.	8cc	.	8ccc	.	IV
=84||	=84||	=84||	=84||	=84||	=84||	=84||	=84||	=84||
*k[]	*	*k[]	*	*k[]	*	*k[]	*	*
*M4/4	*	*M4/4	*	*M4/4	*	*M4/4	*	*
*met(c)	*	*met(c)	*	*met(c)	*	*met(c)	*	*
!	!	!	!	!	!	!LO:TX:a:B:t=Molto Adagio	!	!
*MM60	*	*MM60	*	*MM60	*	*MM60	*	*
!	!	!	!	!	!	!LO:TX:a:t=[quarter]=60	!	!
4r	.	4r	.	4r	.	4r	.	.
4.F	.	4.A	.	4cc	.	4.ccc	.	.
.	.	.	.	(4c	.	.	.	.
8r	.	8r	.	.	.	8r	.	.
4r	.	4r	.	4a	.	4r	.	.
=85	=85	=85	=85	=85	=85	=85	=85	=85
2r	.	(4C	.	8a	.	4r	.	I
.	.	.	.	8g	.	.	.	.
.	.	4.A	.	4.cc)	.	4r	.	IV6
(4C	.	.	.	.	.	4r	.	I
.	.	8E) 8G	.	(8cc	.	.	.	.
[4A	.	(4c	.	4f	.	4r	.	I6
=86	=86	=86	=86	=86	=86	=86	=86	=86
8AL]	.	4e	.	4g	.	2r	.	IV6
8GJ	.	.	.	.	.	.	.	.
4.c)	.	4A)	.	[4f	.	.	.	.
.	.	(4F 4A	.	4f])	.	2ff	p	IV
(8c	.	.	.	.	.	.	.	.
4F)	.	[4a)	.	[4cc	.	.	.	.
=87	=87	=87	=87	=87	=87	=87	=87	=87
8F	.	(4a]	.	4cc]	.	2ff	.	IV6
(8AA	.	.	.	.	.	.	.	.
4A)	.	4f	.	2cc	.	.	.	.
(8cL	.	4G	.	.	.	2ee	.	I
8CJ	.	.	.	.	.	.	.	.
4c)	.	4c)	.	[4g	.	.	.	.
=88	=88	=88	=88	=88	=88	=88	=88	=88
(8dL	.	(4A	.	(4g]	.	2dd	.	ii
8DJ	.	.	.	.	.	.	.	.
4.d)	.	4a	.	4f	.	.	.	.
.	.	4cc	.	4g)	.	2ee	.	I
8C	.	.	.	.	.	.	.	.
4c	.	4g)	.	[4cc	.	.	.	.
=89	=89	=89	=89	=89	=89	=89	=89	=89
!LO:TX:b:i:t=cresc.	!	!LO:TX:b:i:t=cresc.	!	!LO:TX:b:i:t=cresc.	!	!LO:TX:b:i:t=cresc.	!	!
(8AL	.	4f	.	(4cc]	.	2ff	.	IV6
8AAJ	.	.	.	.	.	.	.	.
4AA	.	4c	.	2ff	.	.	.	.
8GL	.	4B 4d	.	.	.	2gg	.	I\\
8GGJ)	.	.	.	.	.	.	.	.
(4c	.	4c 4e	.	(4ee)	.	.	.	.
=90	=90	=90	=90	=90	=90	=90	=90	=90
8dL	p	(4.a	p	(4ee)	p	2ff	p	ii
8DJ	.	.	.	.	.	.	.	.
4.d)	.	.	.	4dd)	.	.	.	.
.	.	8g	.	.	.	.	.	.
.	.	8fL	.	(4aa	.	2r	.	ii6
(8e	.	8gJ	.	.	.	.	.	.
[4f)	.	4a)	.	[4dd)	.	.	.	.
=91	=91	=91	=91	=91	=91	=91	=91	=91
8f]	.	(4a	.	8dd]	.	1r	.	V65
(8g	.	.	.	(8ee	.	.	.	.
8fL	.	4.d)	.	4.ff)	.	.	.	.
8GJ)	.	.	.	.	.	.	.	.
(4G	.	.	.	.	.	.	.	.
.	.	(8e	.	(8gg	.	.	.	.
[4BB)	.	[4G) [4d	.	4ff)	.	.	.	.
=92	=92	=92	=92	=92	=92	=92	=92	=92
8BB]	.	8G] 8d]	.	4ee	.	2r	.	V43
(8C	.	(8G 8e	.	.	.	.	.	.
4.D)	.	4F)	.	4B [4g	.	.	.	.
!	!	!LO:TX:b:i:t=cresc.	!	!LO:TX:b:i:t=cresc.	!	!LO:TX:b:i:t=cresc.	!	!
.	.	(4E 4G	.	4c 4g]	.	2gg	.	I
!LO:TX:b:i:t=cresc.	!	!	!	!	!	!	!	!
(8C	.	.	.	.	.	.	.	.
[4c)	.	4G) 4e	.	[4g	.	.	.	.
=93	=93	=93	=93	=93	=93	=93	=93	=93
8c]	.	(4c	.	4g]	.	2aa	.	IV
(8c	.	.	.	.	.	.	.	.
4.F)	.	[4cc)	.	(4f	.	.	.	.
.	.	(4cc]	.	4g	.	2ccc	.	I6
(8F	.	.	.	.	.	.	.	.
[4E)	.	4G) 4g	.	[4gg)	.	.	.	.
=94	=94	=94	=94	=94	=94	=94	=94	=94
8E]	.	2C 2c	.	(4gg]	.	2aa	.	IV
(8FF	.	.	.	.	.	.	.	.
4.F)	.	.	.	[4ff	.	.	.	.
.	.	[2C [2c	.	4ff]	.	2gg	.	I64
(8GG	.	.	.	.	.	.	.	.
[4G)	.	.	.	[4ee)	.	.	.	.
=95	=95	=95	=95	=95	=95	=95	=95	=95
8G]	.	4C] 4c]	>	(4ee]	.	2ff	.	ii43
(8AA	.	.	.	.	.	.	.	.
4.A)	.	2f	.	8ddL	.	.	.	.
.	.	.	.	[8ccJ)	.	.	.	.
.	.	.	.	(4cc]	>	2dd	>]	V7
8GG	>	.	.	.	.	.	.	.
[4G	]]	4f	]]	[4b)	]]	.	.	.
=96	=96	=96	=96	=96	=96	=96	=96	=96
8G]	.	[2e	p	(4b]	p	2ee	p	I
(8G	p	.	.	.	.	.	.	.
4C)	.	.	.	[4cc)	.	.	.	.
*clefC4	*	*	*	*	*	*	*	*
(4g	.	(8eL]	.	(8ccL]	.	2r	.	I
.	.	8fJ	.	8ddJ)	.	.	.	.
[4c)	.	4g)	.	[4ee	.	.	.	.
=97	=97	=97	=97	=97	=97	=97	=97	=97
(8cL]	.	(4G	.	(8eeL]	.	1r	.	I6
8dJ	.	.	.	8ffJ	.	.	.	.
[4e)	.	[4C)	.	4gg)	.	.	.	.
(8eL]	.	(8CL]	.	(4g	.	.	.	.
8fJ	.	8DJ)	.	.	.	.	.	.
4g)	.	[4E	.	[4c	.	.	.	.
=98	=98	=98	=98	=98	=98	=98	=98	=98
(8GL	.	(8EL]	.	8c]	.	2r	.	.
8CJ	.	8F	.	8d	.	.	.	.
4.c)	.	8G	.	4e)	.	.	.	.
.	.	8CJ)	.	.	.	.	.	.
.	.	(8cL	.	(8eeL	.	2ee	.	vi
(8B	.	8dJ)	.	8ddJ)	.	.	.	.
[4A)	.	[4e	.	[4cc	.	.	.	.
=99	=99	=99	=99	=99	=99	=99	=99	=99
!	!	!LO:TX:b:i:t=cresc.	!	!LO:TX:b:i:t=cresc.	!	!LO:TX:b:i:t=cresc.	!	!
8A]	.	4e]	.	(4cc]	.	2ccc	.	.
!LO:TX:b:i:t=cresc.	!	!	!	!	!	!	!	!
(8EL	.	.	.	.	.	.	.	.
8AA	.	(4c	.	2aa	.	.	.	.
8AJ)	.	.	.	.	.	.	.	.
(8eL	.	4E	.	.	.	2bb	.	iii
8EJ	.	.	.	.	.	.	.	.
[4e	.	4g)	.	[4gg)	.	.	.	.
=100	=100	=100	=100	=100	=100	=100	=100	=100
8e]	.	(4G 4e	.	4gg]	.	2ccc	.	I
8C	.	.	.	.	.	.	.	.
4.c)	.	4ee)	.	(2gg	.	.	.	.
.	.	2cc	.	.	.	2aa	.	IV
(8c	.	.	.	.	.	.	.	.
[4f)	.	.	.	4ff)	.	.	.	.
=101	=101	=101	=101	=101	=101	=101	=101	=101
8f]	.	2d 2f	.	4g	.	2bb	.	V43
(8e	.	.	.	.	.	.	.	.
4.d)	.	.	.	2g	.	.	.	.
.	.	2c 2e	.	.	.	2ccc	.	I64
(8c	.	.	.	.	.	.	.	.
[4G)	.	.	.	[4g	.	.	.	.
=102	=102	=102	=102	=102	=102	=102	=102	=102
8GL]	f >	2.B 2.d	f >	(4g]	f >	2ddd	f >	V
(8AAJ	.	.	.	.	.	.	.	.
4.GG)	]	.	.	4b)	]	.	.	.
.	.	.	.	(4gg	p	2r	]	I6
(8F	p	.	.	.	.	.	.	.
[4E)	.	4G	] p	[4cc	.	.	.	.
=103	=103	=103	=103	=103	=103	=103	=103	=103
8E]	.	(4g	.	8cc]	.	1r	.	I
(8B	.	.	.	8dd	.	.	.	.
4c)	.	4.c)	.	4.ee	.	.	.	.
(4G	.	.	.	.	.	.	.	.
.	.	(8B 8d	.	8ff	.	.	.	.
*	*	*^	*	*	*	*	*	*
[4C	.	[4e)	[4G	.	4ee)	.	.	.	.
=104	=104	=104	=104	=104	=104	=104	=104	=104	=104
8C]	.	(8eL]	4G]	.	(4b	.	4r	.	V43
8D	.	8fJ)	.	.	.	.	.	.	.
4E)	.	4g	[4G	.	4cc)	.	4r	.	I6
*	*	*v	*v	*	*	*	*	*	*
(8AL	.	(4G]	.	[2c	.	2ccc	.	IV6
8AAJ	.	.	.	.	.	.	.	.
[4A)	.	[4F)	.	.	.	.	.	.
=105	=105	=105	=105	=105	=105	=105	=105	=105
!LO:TX:b:i:t=cresc.	!	!LO:TX:b:i:t=cresc.	!	!LO:TX:b:i:t=cresc.	!	!LO:TX:b:i:t=cresc.	!	!
8AL]	.	(4F]	.	4c]	.	2ccc	.	.
(8aJ	.	.	.	.	.	.	.	.
4A)	.	4c	.	(2f	.	.	.	.
(8GL	.	4B	.	.	.	2ddd	.	V7
8GGJ	.	.	.	.	.	.	.	.
[4G)	.	[4f)	.	4b	.	.	.	.
=106	=106	=106	=106	=106	=106	=106	=106	=106
8GL]	.	(4f]	.	4cc	.	2gg	.	I
(8CJ	.	.	.	.	.	.	.	.
4.c)	.	4e	.	[4ee	.	.	.	.
.	.	4cc	.	4ee]	.	2aa	.	IV
(8G	.	.	.	.	.	.	.	.
4F)	.	[4c)	.	4ff)	.	.	.	.
=107	=107	=107	=107	=107	=107	=107	=107	=107
(8GL	.	4c]	.	4f	.	2dd	.	V
8GGJ	.	.	.	.	.	.	.	.
4.G)	.	4B	.	[4d	.	.	.	.
.	.	4G 4g	>	(4d]	>	2ee	>]	I
(8C	>	.	.	.	.	.	.	.
[4c)	]]	4G	]]	[4c)	]]	.	.	.
=108	=108	=108	=108	=108	=108	=108	=108	=108
(8cL]	p	4F 4A	p	(4c]	p	2ff	p	IV
8FJ	.	.	.	.	.	.	.	.
4f)	.	4F	.	4a)	.	.	.	.
2r	.	2r	.	(4cc	.	2r	.	.
.	.	.	.	4aa	.	.	.	.
=109	=109	=109	=109	=109	=109	=109	=109	=109
2r	.	(4c	.	8r	.	1r	.	ii6
.	.	.	.	8ee	.	.	.	.
.	.	4a)	.	4.ff	.	.	.	.
(4AA	.	(4C	.	.	.	.	.	.
.	.	.	.	8ee	.	.	.	.
[4F)	.	4A)	.	4dd	.	.	.	.
=110	=110	=110	=110	=110	=110	=110	=110	=110
8F]	.	8r	.	4cc	.	2r	.	V64
(8G	.	(8e	.	.	.	.	.	.
4g)	.	4d)	.	4b)	.	.	.	.
(8aL	.	(4A	.	(4f	.	2ccc	.	IV6
8AJ	.	.	.	.	.	.	.	.
[4a)	.	[4f)	.	[4cc)	.	.	.	.
=111	=111	=111	=111	=111	=111	=111	=111	=111
!LO:TX:b:i:t=cresc.	!	!LO:TX:b:i:t=cresc.	!	!LO:TX:b:i:t=cresc.	!	!LO:TX:b:i:t=cresc.	!	!
8a]	.	(4f]	.	(4cc]	.	2ccc	.	.
(8A	.	.	.	.	.	.	.	.
4a)	.	4cc	.	4ff	.	.	.	.
(8gL	.	4b	.	4ff	.	2ddd	.	V7
8GJ	.	.	.	.	.	.	.	.
[4g)	.	[4f)	.	4b	.	.	.	.
=112	=112	=112	=112	=112	=112	=112	=112	=112
8g]	.	(4f]	.	4cc	.	2gg	.	I
(8C	.	.	.	.	.	.	.	.
4.c)	.	4e)	.	[4ee	.	.	.	.
.	.	(4c	.	4ee]	.	2aa	.	IV
(8c	.	.	.	.	.	.	.	.
4f)	.	4a)	.	[4ff)	.	.	.	.
=113	=113	=113	=113	=113	=113	=113	=113	=113
(8dL	p	(4A	p	(4ff]	p	2ff	p	ii
8DJ	.	.	.	.	.	.	.	.
4d)	.	4a	.	[4dd	.	.	.	.
(8GL	.	4b	.	4dd]	.	2gg	.	V
8GGJ	.	.	.	.	.	.	.	.
4G)	.	4d)	.	4b)	.	.	.	.
=114	=114	=114	=114	=114	=114	=114	=114	=114
!LO:TX:b:i:t=cresc.	!	!LO:TX:b:i:t=cresc.	!	!LO:TX:b:i:t=cresc.	!	!LO:TX:b:i:t=cresc.	!	!
(8AL	.	[2c#X	.	(4.a	.	2ee	.	II.V
8AAJ)	.	.	.	.	.	.	.	.
[2A	.	.	.	.	.	.	.	.
.	.	.	.	8e	.	.	.	.
.	.	8c#L]	.	4ee	.	2aa	.	V7
.	.	(8c#J	.	.	.	.	.	.
(8AL]	.	4e)	.	4gg)	.	.	.	.
8AAJ)	.	.	.	.	.	.	.	.
=115||	=115||	=115||	=115||	=115||	=115||	=115||	=115||	=115||
*k[f#c#]	*	*k[f#c#]	*	*k[f#c#]	*	*k[f#c#]	*	*
*M3/8	*	*M3/8	*	*M3/8	*	*M3/8	*	*
!	!LO:DY:a	!	!LO:DY:a	!	!	!LO:TX:a:t=Andante	!	!
8DD'L	f f	8D'	f	8d'L 8a 8ff#	.	8ddd'	f	I
8D'J	.	8f#'	.	8ff#'J	.	8d'	.	.
!	!	!	!	!	!	!LO:TX:a:t=ten.	!	!
8r	.	8r	.	8r	.	8fff#	.	.
=116	=116	=116	=116	=116	=116	=116	=116	=116
8C#'L	p	8e'L	p	8a'L	p	16r	.	V6
.	.	.	.	.	.	16eee	p	.
8c#'J	.	8ee'J	.	8aa'J	.	32r	.	.
.	.	.	.	.	.	(32aaLLL	.	.
.	.	.	.	.	.	32ddd	.	.
.	.	.	.	.	.	32ccc#JJJ	.	.
8r	.	8r	.	8r	.	32bbLLL	.	.
.	.	.	.	.	.	32aa	.	.
.	.	.	.	.	.	32bb	.	.
.	.	.	.	.	.	32ccc#JJJ)	.	.
=117	=117	=117	=117	=117	=117	=117	=117	=117
!	!LO:DY:a	!	!LO:DY:a	!	!	!	!	!
8BB'L	f f	8B'L	f	8d'L	.	8ddd'	f	vi
8B'J	.	8b'J	.	8dd'J 8ff#	.	8d'	.	.
!	!	!	!	!	!	!LO:TX:a:t=ten.	!	!
8r	.	8r	.	8r	.	8ddd	.	.
=118	=118	=118	=118	=118	=118	=118	=118	=118
8AA'L	p	8c#'L	p	8f#'L	p	16r	.	iii6
.	.	.	.	.	.	16ccc#	p	.
8A'J	.	8cc#'J	.	8ff#'J	.	32r	.	.
.	.	.	.	.	.	(32ff#LLL	.	.
.	.	.	.	.	.	32bb	.	.
.	.	.	.	.	.	32aaJJJ	.	.
8r	.	8r	.	8r	.	32ggLLL	.	.
.	.	.	.	.	.	32ff#	.	.
.	.	.	.	.	.	32gg	.	.
.	.	.	.	.	.	32aaJJJ)	.	.
=119	=119	=119	=119	=119	=119	=119	=119	=119
!	!LO:DY:a	!	!	!	!	!	!	!
8GG'L	f f	8G'L	.	8B'L	f	8bb'	f	IV
8G'J	.	8g'J 8b	.	8d'J 8dd	.	8G'	.	.
!	!	!	!	!	!	!LO:TX:a:t=ten.	!	!
8r	.	8r	.	8r	.	8bb	.	.
=120	=120	=120	=120	=120	=120	=120	=120	=120
!	!LO:DY:a	!	!	!	!	!	!	!
8F#'L	p p	8A'L	.	8d'L	p	16r	.	I6
.	.	.	.	.	.	16aa	p	.
8f#'J	.	8a'J	.	8dd'J	.	32r	.	.
.	.	.	.	.	.	32aa'LLL	.	.
.	.	.	.	.	.	32bb'	.	.
.	.	.	.	.	.	32ccc#'	.	.
[8BB	.	[8D	.	8r	.	32ddd'	.	vi
.	.	.	.	.	.	32eee'	.	.
.	.	.	.	.	.	32fff#'	.	.
.	.	.	.	.	.	32ggg'JJJ	.	.
=121	=121	=121	=121	=121	=121	=121	=121	=121
!LO:TX:b:i:t=cresc.	!	!LO:TX:b:i:t=cresc.	!	!LO:TX:b:i:t=cresc.	!	!LO:TX:b:i:t=cresc.	!	!
(8BBL]	.	(8DL]	.	32r	.	(8aaaL	.	vi7
.	.	.	.	32A'LLL	.	.	.	.
.	.	.	.	32c#'	.	.	.	.
.	.	.	.	32d'JJJ	.	.	.	.
8C#	.	8A)	.	32e'LLL	.	8ggg	.	V65
.	.	.	.	32f#'	.	.	.	.
.	.	.	.	32g'	.	.	.	.
.	.	.	.	32a'JJJ	.	.	.	.
8DJ	.	8F#J 8B	.	32a'LLL	.	8fff#J)	.	I
.	.	.	.	32b'	.	.	.	.
.	.	.	.	32cc#'	.	.	.	.
.	.	.	.	32dd'JJJ	.	.	.	.
=122	=122	=122	=122	=122	=122	=122	=122	=122
8EL	.	(8AL	.	32cc#'LLL	.	(16eeeLL	.	V64
.	.	.	.	32ee'	.	.	.	.
.	.	.	.	32dd'	.	16eeJ	.	.
.	.	.	.	32cc#'JJJ	.	.	.	.
8GG#X	>	8E 8B	>	32dd'LLL	>	8.bb	>	V(9)
.	.	.	.	32b'	.	.	.	.
.	.	.	.	32ee'	.	.	.	.
.	.	.	.	32dd'JJJ	.	.	.	.
8AAJ)	f ]]	16EL	.	32cc#'LLL	.	.	.	.
.	.	.	.	32ee'	.	.	.	.
.	.	16EJJ) 16Gn	]]	32aa'	.	16aaJk)	]]	V7
.	.	.	.	32ccc#'JJJ	]]	.	.	.
=123	=123	=123	=123	=123	=123	=123	=123	=123
8DD'L	.	8F#'L	f	8ddd'	f	32aa'LLL	f	I\\
.	.	.	.	.	.	32d'	.	.
.	.	.	.	.	.	32ff#'	.	.
.	.	.	.	.	.	32gg'JJJ	.	.
8D'	.	8f#'J	.	8e'	.	32aa'LLL	.	.
.	.	.	.	.	.	32bb'	.	.
.	.	.	.	.	.	32ccc#'	.	.
.	.	.	.	.	.	32ddd'JJJ	.	.
8d'J	.	8r	.	8ff#	.	32eee'LLL	.	.
.	.	.	.	.	.	32fff#'	.	.
.	.	.	.	.	.	32ggg'	.	.
.	.	.	.	.	.	32aaa'JJJ	.	.
=124	=124	=124	=124	=124	=124	=124	=124	=124
8r	.	8C#'L	p	16r	.	16aaa	p	V6
.	.	.	.	16ee	p	8.aT	.	.
8CC#'L	p	8c#'J 8e	.	32r	.	.	.	.
.	.	.	.	(32aLLL	.	.	.	.
.	.	.	.	32dd	.	.	.	.
.	.	.	.	32cc#JJJ	.	.	.	.
.	.	.	.	.	.	32qqg#X/LLL	.	.
.	.	.	.	.	.	32qqa/JJJ	.	.
8C#'J	.	8r	.	32bLLL	.	8aaT	.	.
.	.	.	.	32a	.	.	.	.
.	.	.	.	32bb	.	.	.	.
.	.	.	.	32ccc#JJJ)	.	.	.	.
.	.	.	.	.	.	32qqgg/LLL	.	.
.	.	.	.	.	.	32qqaa/JJJ	.	.
=125	=125	=125	=125	=125	=125	=125	=125	=125
8r	.	8B'L	f	8ddd'	f	32dd'LLL	f	vi
.	.	.	.	.	.	32d'	.	.
.	.	.	.	.	.	32dd'	.	.
.	.	.	.	.	.	32ee'JJJ	.	.
8BB'L	f	8f#'J 8dd	.	8d'	.	32ff#'LLL	.	.
.	.	.	.	.	.	32bb'	.	.
.	.	.	.	.	.	32ccc#'	.	.
.	.	.	.	.	.	32ddd'JJJ	.	.
8B'J	.	8r	.	8ddd	.	32eee'LLL	.	.
.	.	.	.	.	.	32fff#'	.	.
.	.	.	.	.	.	32fff#'	.	.
.	.	.	.	.	.	32fff#'JJJ	.	.
=126	=126	=126	=126	=126	=126	=126	=126	=126
8r	.	8A'L	p	16r	.	16fff#	p	iii6
.	.	.	.	16ccc#	p	8.f#t	.	.
8AA'L	p	8a'J 8cc#	.	32r	.	.	.	.
.	.	.	.	(32ff#LLL	.	.	.	.
.	.	.	.	32bb	.	.	.	.
.	.	.	.	32aaJJJ	.	.	.	.
.	.	.	.	.	.	32qqe/LLL	.	.
.	.	.	.	.	.	32qqf#/JJJ	.	.
8A'J	.	8r	.	32ggLLL	.	8ff#t	.	.
.	.	.	.	32ff#	.	.	.	.
.	.	.	.	32gg	.	.	.	.
.	.	.	.	32aaJJJ)	.	.	.	.
.	.	.	.	.	.	32qqee/LLL	.	.
.	.	.	.	.	.	32qqff#/JJJ	.	.
=127	=127	=127	=127	=127	=127	=127	=127	=127
!	!LO:DY:a	!	!	!	!	!	!	!
8r	f	8G'L	.	32d'LLL	f	8bb'	f	IV
.	.	.	.	32dd'	.	.	.	.
.	.	.	.	32ee'	.	.	.	.
.	.	.	.	32ff#'JJJ	.	.	.	.
8GG'L	f	8d'J 8b	.	32gg'LLL	.	8G'	.	.
.	.	.	.	32aa'	.	.	.	.
.	.	.	.	32bb'	.	.	.	.
.	.	.	.	32ccc#JJJ	.	.	.	.
!	!	!	!	!	!	!LO:TX:a:t=ten.	!	!
8G'J	.	8r	.	32ddd'LLL	.	8bb	.	.
.	.	.	.	32ddd'	.	.	.	.
.	.	.	.	32ddd'	.	.	.	.
.	.	.	.	32ddd'JJJ	.	.	.	.
=128	=128	=128	=128	=128	=128	=128	=128	=128
8r	.	8F#'L	p	8ddd'L	p	16r	.	I6
.	.	.	.	.	.	(48bbLLL	p	.
.	.	.	.	.	.	48aa	.	.
.	.	.	.	.	.	48gg#XJJJ)	.	.
8F#	p	8f#'J 8a	.	8dd'	.	32r	.	.
.	.	.	.	.	.	32aaLLL	.	.
.	.	.	.	.	.	(48aa	.	.
.	.	.	.	.	.	48bb	.	.
.	.	.	.	.	.	48ccc#JJJ)	.	.
16BBLL	.	16DLL	.	[8gJ	.	(48ccc#LLL	.	IV6
.	.	.	.	.	.	48ddd	.	.
.	.	.	.	.	.	48eeeJJJ)	.	.
[16BJJ	.	[16dJJ	.	.	.	(48eeeLLL	.	.
.	.	.	.	.	.	48fff#	.	.
.	.	.	.	.	.	48gggnJJJ)	.	.
=129	=129	=129	=129	=129	=129	=129	=129	=129
!LO:TX:b:i:t=cresc.	!	!LO:TX:b:i:t=cresc.	!	!LO:TX:b:i:t=cresc.	!	!LO:TX:b:i:t=cresc.	!	!
16BKL]	.	16dKL]	.	(8g]	.	(16aaaLL	.	.
8B	.	8d	.	.	.	16aa	.	.
.	.	.	.	[4a)	.	16gg	.	V65
8c#	.	8e	.	.	.	16ggg	.	.
.	.	.	.	.	.	16fff#	.	.
16dJk	.	16f#Jk	.	.	.	16ff#JJ	.	I
=130	=130	=130	=130	=130	=130	=130	=130	=130
(8eL	.	16r	.	(16aLL]	.	16eeeLL	.	V64
.	.	(16a	.	16cc#JJ)	.	16eeJ	.	.
8G#X	>	8.eL	>	(8ddL	>	[8bbJ)	>	V65/V
16AL	.	.	.	16cc#L	.	(32bbLLL]	.	V
.	.	.	.	.	.	32ee	.	.
16BJJ)	]]	16dJk)	]]	16ddJJ)	]]	32aa	.	#viio6/V
.	.	.	.	.	.	32gg#XJJJ)	]]	.
=131	=131	=131	=131	=131	=131	=131	=131	=131
16c#'LL	p	16e'LL	p	(8eeL	p	8ggn	p	viio
16C#'JJ	.	16E'JJ	.	.	.	.	.	.
16r	.	16r	.	8a	.	8r	.	vi7
16B	.	16d	.	.	.	.	.	.
16r	.	16r	.	8gTJ)	.	8r	.	viio
16c#	.	16e	.	.	.	.	.	.
=132	=132	=132	=132	=132	=132	=132	=132	=132
16r	.	16r	.	4f#	.	(8dddL	.	I
16d	.	16f#	.	.	.	.	.	.
16r	.	16r	.	.	.	8gg	.	viio6(+4)
16E	.	16c#	.	.	.	.	.	.
16r	.	16r	.	8r	.	8ff#tJ)	.	I
16D	.	16d	.	.	.	.	.	.
=133	=133	=133	=133	=133	=133	=133	=133	=133
16ALL	.	16c#LL	.	(8eeL	.	8ee	.	V
16AAJJ	.	16C#JJ	.	.	.	.	.	.
16r	.	16r	.	16aL)	.	8r	.	vi7
16B	.	16d	.	16a'JJ	.	.	.	.
16r	.	16r	.	8gT	.	8r	.	viio
16c#	.	16e	.	.	.	.	.	.
=134	=134	=134	=134	=134	=134	=134	=134	=134
16r	.	16r	.	(16f#KL	.	(8dddL	.	I
16d	.	16f#	.	8a)	.	.	.	.
16r	.	16r	.	.	.	16ggL)	.	V43
16e	.	16cc#	.	[16aaJk	.	16gg'JJ	.	.
16r	.	16r	.	(32aaLLL]	.	(16ff#tLL	.	I
.	.	.	.	32a	.	.	.	.
16d	.	16dd	.	32g	.	32ggL	.	.
.	.	.	.	32f#JJJ)	.	32aaJJJ)	.	.
=135	=135	=135	=135	=135	=135	=135	=135	=135
16r	.	16r	.	32GLLL 32g	pp	(32aa#XLLL	pp	IV
.	.	.	.	32GJJJ 32g	.	32bJJJ)	.	.
32GnLLL	pp	32BLLL	pp	16r	.	32r	.	.
32GJJJ	.	32BJJJ	.	.	.	32bb	.	.
16r	.	16r	.	32GLLL 32b	.	(32ff#LLL	.	.
.	.	.	.	32GJJJ 32b	.	32bJJJ)	.	.
32GLLL	.	32BLLL 32d	.	16r	.	32r	.	.
32GJJJ	.	32BJJJ 32d	.	.	.	32gg	.	.
16r	.	16r	.	32GLLL 32b	.	(32dd#XLLL	.	ii6
.	.	.	.	32GJJJ 32b	.	32eJJJ)	.	.
32GLLL	.	32BLLL 32g	.	16r	.	32r	.	.
32GJJJ	.	32BJJJ 32g	.	.	.	32ee	.	.
=136	=136	=136	=136	=136	=136	=136	=136	=136
16r	.	16r	.	32gLLL 32a	.	(32ddnLLL	.	V7(+4)
.	.	.	.	32gJJJ 32a	.	32eJJJ)	.	.
32ALLL 32g	.	32c#LLL 32e	.	16r	.	32r	.	.
32AJJJ 32g	.	32c#JJJ 32e	.	.	.	32cc#	.	.
16r	.	16r	.	32gLLL 32a	.	(32ddLLL	.	.
.	.	.	.	32gJJJ 32a	.	32eJJJ)	.	.
32ALLL 32g	.	32c#LLL 32e	.	16r	.	32r	.	.
32AJJJ 32g	.	32c#JJJ 32e	.	.	.	32ee	.	.
16r	.	16r	.	32gLLL 32a	.	(32ff#LLL	.	V7(+6)
.	.	.	.	32gJJJ 32a	.	32gJJJ)	.	.
32ALLL 32g	.	32c#LLL 32e	.	16r	.	32r	.	.
32AJJJ 32g	.	32c#JJJ 32e	.	.	.	32gg	.	.
=137	=137	=137	=137	=137	=137	=137	=137	=137
!LO:TX:b:i:t=cresc.	!	!LO:TX:b:i:t=cresc.	!	!LO:TX:b:i:t=cresc.	!	!LO:TX:b:i:t=cresc.	!	!
16r	.	16r	.	32eLLL 32ee	.	(32gg#XLLL	.	.
.	.	.	.	32eJJJ 32ee	.	32eeJJJ)	.	.
32ALLL 32g	.	32C#LLL 32G	.	16r	.	32r	.	.
32AJJJ 32g	.	32C#JJJ 32G	.	.	.	32aa	.	.
16r	.	16r	.	32eLLL 32ee	.	(32aa#XLLL	.	V7(+#1)
.	.	.	.	32eJJJ 32ee	.	32eeJJJ)	.	.
32ALLL 32g	.	32C#LLL 32G	.	16r	.	32r	.	.
32AJJJ 32g	.	32C#JJJ 32G	.	.	.	32bb	.	.
16r	.	16r	.	32eLLL 32ee	.	(32aa#LLL	.	.
.	.	.	.	32eJJJ 32ee	.	32eeJJJ)	.	.
32ALLL 32g	.	32C#LLL 32G	.	16r	.	32r	.	.
32AJJJ 32g	.	32C#JJJ 32G	.	.	.	32aan	.	.
=138	=138	=138	=138	=138	=138	=138	=138	=138
16r	.	16r	.	32eLLL 32ee	.	(32aa#XLLL	.	.
.	.	.	.	32eJJJ 32ee	.	32eeJJJ)	.	.
32ALLL 32g	.	32C#LLL 32G	.	16r	.	32r	.	.
32AJJJ 32g	.	32C#JJJ 32G	.	.	.	32bb	.	.
16r	.	16r	.	32eLLL 32ee	.	(32aa#LLL	.	.
.	.	.	.	32eJJJ 32ee	.	32eeJJJ)	.	.
32ALLL 32g	.	32C#LLL 32G	.	16r	.	32r	.	.
32AJJJ 32g	.	32C#JJJ 32G	.	.	.	32aan	.	.
16r	.	32C#LLL 32G	.	32eLLL 32ee	.	(32aa#XLLL	.	.
.	.	32C# 32G	.	32e 32ee	.	32eeJJJ)	.	.
32GGLLL	.	32E 32c#	.	32c# 32e	.	32r	.	vii%43
32GGJJJ	.	32EJJJ 32c#	.	32c#JJJ 32e	.	32bb	.	.
=139	=139	=139	=139	=139	=139	=139	=139	=139
(8GGL	sf	(8EL 8c#	sf	(8bL	sf	(8bbL	sf	.
8GG#X	.	8D) 8B	.	8d) 8f#	.	8ddd	.	#vii%7/V
[8AAJ)	.	[8DJ [8d	.	[8AJ [8f#	.	8fff#J	.	V(64)
=140	=140	=140	=140	=140	=140	=140	=140	=140
(8AAL]	.	(8DL] 8d]	.	(8AL] 8f#]	.	16aaaLL	.	.
.	.	.	.	.	.	16aaJ)	.	.
8CC#	>	[8AJ)	>	[8g)	>	([8eeeJ	>	V65
8DDJ)	]]	(16ALL]	.	(32gLL]	.	32eeeLLL]	.	I(94)
.	.	.	.	32f#	.	32ddd	.	I
.	.	32c#L	.	32ee	.	32ggg	.	.
.	.	32dJJJ)	]]	32ddJJJ)	]]	32fff#JJJ)	]]	.
=141	=141	=141	=141	=141	=141	=141	=141	=141
!LO:TX:a:t=pizz.	!	!	!	!	!	!	!	!
16AALL	p	(8e	p	16cc#'LL	p	32eee'LLL	p	V
.	.	.	.	.	.	(32eee	.	.
16A	.	.	.	16ccc#'	.	32fff#	.	.
.	.	.	.	.	.	32eeeJJJ)	.	.
16B	.	4a)	.	16ddd'	.	32aa'LLL	.	vi7
.	.	.	.	.	.	(32aa	.	.
16BB	.	.	.	16dd'	.	32bb	.	.
.	.	.	.	.	.	32aaJJ)	.	.
16C#	.	.	.	16ee'	.	8ggTJ	.	V65
16c#JJ	.	.	.	16eee'JJ	.	.	.	.
=142	=142	=142	=142	=142	=142	=142	=142	=142
!	!	!LO:TX:a:t=pizz.	!	!	!	!	!	!
16DLL	.	16F#LL	.	32ddd'LLL	.	8ff#	.	I
.	.	.	.	(32ddd	.	.	.	.
16d	.	16f#	.	32eee	.	.	.	.
.	.	.	.	32dddJJJ)	.	.	.	.
16e	.	16g	.	32gg'LLL	.	8r	.	V43
.	.	.	.	(32gg	.	.	.	.
16E	.	16c#	.	32aa	.	.	.	.
.	.	.	.	32ggJJJ)	.	.	.	.
16D	.	16d	.	8ff#t	.	8r	.	I
16dJJ	.	16F#JJ	.	.	.	.	.	.
=143	=143	=143	=143	=143	=143	=143	=143	=143
16AALL	.	16c#LL	.	16ee'LL	.	(48ddd#XLLL	.	V
.	.	.	.	.	.	48eee	.	.
.	.	.	.	.	.	48fff#	.	.
16A	.	16cc#	.	16ccc#'	.	48eee	.	.
.	.	.	.	.	.	48ddd#	.	.
.	.	.	.	.	.	48eeeJJJ)	.	.
16B	.	16dd	.	16ddd'	.	(48gg#XLLL	.	#viio6/V
.	.	.	.	.	.	48aa	.	.
.	.	.	.	.	.	48bb	.	.
16BB	.	16d	.	16dd'	.	48aa	.	.
.	.	.	.	.	.	48gg#	.	.
.	.	.	.	.	.	48aaJJJ)	.	.
16C#	.	16e	.	16ee'	.	8ggnT	.	viio
16c#JJ	.	16eeJJ	.	16eee'JJ	.	.	.	.
=144	=144	=144	=144	=144	=144	=144	=144	=144
16DLL	.	16F#LL	.	(48ccc#LLL	.	8ff#	.	I
.	.	.	.	48ddd	.	.	.	.
.	.	.	.	48eee	.	.	.	.
16d	.	16f#	.	48ddd	.	.	.	.
.	.	.	.	48ccc#	.	.	.	.
.	.	.	.	48dddJJJ)	.	.	.	.
16e	.	16g	.	(48ff#LLL	.	8r	.	V43
.	.	.	.	48gg	.	.	.	.
.	.	.	.	48aa	.	.	.	.
16E	.	16c#	.	48gg	.	.	.	.
.	.	.	.	48ff#	.	.	.	.
.	.	.	.	48ggJJJ)	.	.	.	.
16d	.	16f#	.	(48ff#LLL	.	8r	.	I
.	.	.	.	48gg	.	.	.	.
.	.	.	.	48ee	.	.	.	.
16DJJ	.	16F#JJ	.	48ff#	.	.	.	.
.	.	.	.	48gg	.	.	.	.
.	.	.	.	48aaJJJ)	.	.	.	.
=145	=145	=145	=145	=145	=145	=145	=145	=145
!	!	!LO:TX:a:t=arco	!	!	!	!	!	!
32GLLL	pp	32BLLL	pp	(32aa#XLLL	pp	8r	pp	IV
16r	.	32B 32d	.	32bJJJ)	.	.	.	.
.	.	32BJJJ 32d	.	32aa#'LLL	.	.	.	.
!LO:TX:a:t=arco	!	!	!	!	!	!	!	!
32GGJJJ	.	32r	.	(64ccc#L	.	.	.	.
.	.	.	.	64bbJJJJ)	.	.	.	.
32GGLLL	.	32r	.	32r	.	(32ff#LLL	.	.
16r	.	32BLLL 32d	.	32gLLL 32b	.	32gJJJ)	.	.
.	.	32BJJJ 32d	.	32gJJJ 32b	.	32ff#'LLL	.	.
32GGJJJ	.	32r	.	32r	.	(64aaL	.	.
.	.	.	.	.	.	64ggJJJJ)	.	.
32GGLLL	.	32r	.	32r	.	(32dd#XLLL	.	ii6
16r	.	32BLLL 32e	.	32gLLL 32b	.	32eJJJ)	.	.
.	.	32BJJJ 32e	.	32gJJJ 32b	.	32ddn'LLL	.	.
32GGJJJ	.	32r	.	32r	.	(64ff#L	.	.
.	.	.	.	.	.	64eeJJJJ)	.	.
=146	=146	=146	=146	=146	=146	=146	=146	=146
32AALLL	.	32r	.	32r	.	(32ddnLLL	.	V7(+4)
16r	.	32c#LLL 32e	.	32gLLL 32a	.	32eJJJ)	.	.
.	.	32c#JJJ 32e	.	32gJJJ 32a	.	32b'LLL	.	.
32AAJJJ	.	32r	.	32r	.	(64ddL	.	.
.	.	.	.	.	.	64cc#JJJJ)	.	.
32AALLL	.	32r	.	32r	.	(32ddLLL	.	.
16r	.	32c#LLL 32e	.	32gLLL 32a	.	32eJJJ)	.	.
.	.	32c#JJJ 32e	.	32gJJJ 32a	.	32dd#XLLL	.	.
32AAJJJ	.	32r	.	32r	.	(64ff#L	.	V7(+6)
.	.	.	.	.	.	64eeJJJJ)	.	.
32AALLL	.	32r	.	32r	.	(32ff#LLL	.	.
16r	.	32c#LLL 32e	.	32gLLL 32a	.	32gJJJ)	.	.
.	.	32c#JJJ 32e	.	32gJJJ 32a	.	32ff#'LLL	.	.
32AAJJJ	.	32r	.	32r	.	(64aaL	.	.
.	.	.	.	.	.	64ggJJJJ)	.	.
=147	=147	=147	=147	=147	=147	=147	=147	=147
!LO:TX:b:i:t=cresc.	!	!LO:TX:b:i:t=cresc.	!	!LO:TX:b:i:t=cresc.	!	!LO:TX:b:i:t=cresc.	!	!
32CC#LLL	.	32r	.	32r	.	(32gg#XLLL	.	viio(+#5)
16r	.	32GLLL 32e	.	32gLLL 32ee	.	32eeJJJ)	.	.
.	.	32GJJJ 32e	.	32gJJJ 32ee	.	32gg#'LLL	.	.
32CC#JJJ	.	32r	.	32r	.	(64bbL	.	.
.	.	.	.	.	.	64aaJJJJ)	.	.
32CC#LLL	.	32r	.	32r	.	(32aa#XLLL	.	viio(+#6)
16r	.	32GLLL 32e	.	32gLLL 32ee	.	32eeJJJ)	.	.
.	.	32GJJJ 32e	.	32gJJJ 32ee	.	32aa#'LLL	.	.
32CC#JJJ	.	32r	.	32r	.	(64ccc#L	.	.
.	.	.	.	.	.	64bbJJJJ)	.	.
32CC#LLL	.	32r	.	32r	.	(32aa#LLL	.	.
16r	.	32GLLL 32e	.	32gLLL 32ee	.	32ee	.	.
.	.	32GJJJ 32e	.	32gJJJ 32ee	.	32bb	.	.
32CC#JJJ	.	32r	.	32r	.	32aanJJJ)	.	.
=148	=148	=148	=148	=148	=148	=148	=148	=148
32CC#	.	32GLLL 32e	.	32gLLL 32ee	.	(32aa#XLLL	.	.
32gLLL	.	16r	.	32cc# 32ee	.	32eeJJJ)	.	.
32gJJJ	.	.	.	32cc#JJJ 32ee	.	32aa#'LLL	.	.
16r	.	32C#JJJ 32G	.	32r	.	(64ccc#L	.	.
.	.	.	.	.	.	64bbJJJJ)	.	.
.	.	32C#LLL 32G	.	32r	.	(32aa#LLL	.	.
32gLLL	.	16r	.	32cc#LLL 32ee	.	32eeJJJ)	.	.
32gJJJ	.	.	.	32cc#JJJ 32ee	.	32gg#X'LLL	.	viio(+#5)
16r	.	32C#JJJ 32G	.	32r	.	(64bbL	.	.
.	.	.	.	.	.	64aanJJJJ)	.	.
.	.	32C#LLL 32G	.	32r	.	(32aa#XLLL	.	viio(+#6)
32g	.	32C# 32G	.	32cc#LLL 32ee	.	32eeJJJ)	.	.
*clefF4	*	*	*	*	*	*	*	*
32GGLLL	.	32C# 32G	.	32cc# 32ee	.	32aa#'LLL	.	viio64
32GGJJJ	.	32C#JJJ 32G	.	32cc#JJJ 32ee	.	(64ccc#L	.	.
.	.	.	.	.	.	64bbJJJJ)	.	.
=149	=149	=149	=149	=149	=149	=149	=149	=149
(16GGLL	sf	(16cc#LL	sf	(16eeLL	sf	(32bbLLL	sf	.
.	.	.	.	.	.	32ee	.	.
16GG#XJJ)	.	16f#JJ)	.	16ddJJ)	.	32ccc#	.	#vii%7/V
.	.	.	.	.	.	32dddJJJ)	.	.
(16GG#LL	.	(16f#LL	.	(16ddLL	.	32dddLLL	.	.
.	.	.	.	.	.	32ff#	.	.
16AAJJ)	.	16dJJ)	.	16f#JJ)	.	32eee	.	V(64)
.	.	.	.	.	.	32fff#JJJ	.	.
[8AA	.	(16dLL	.	(16f#LL	.	(32fff#LLL	.	.
.	.	.	.	.	.	32aan	.	.
.	.	16F#JJ)	.	16dJJ)	.	32fff#	.	.
.	.	.	.	.	.	32aaaJJJ)	.	.
=150	=150	=150	=150	=150	=150	=150	=150	=150
(8AAL]	.	(8F#L	.	(16dLL	.	(32aaaLLL	.	.
.	.	.	.	.	.	32aa	.	.
.	.	.	.	16AJJ)	.	32fff#	.	.
.	.	.	.	.	.	32eeeJJJ)	.	.
8CC#J	.	8GJ	.	[8A	.	[8eee	.	V65
16DDLL	>	32F#'LLL)	>	32ALLL]	>	(32eeeLLL]	>	I\\
.	.	(32F#	.	(32a	.	32ddd	.	.
16DJJ)	]]	32E	.	32g	.	32ccc#	.	.
.	.	32DJJJ)	]]	32f#JJJ)	]]	64eeeL	.	.
.	.	.	.	.	.	64dddJJJJ)	]]	.
=151	=151	=151	=151	=151	=151	=151	=151	=151
(16CnLL	p	[4.D	p	(8f#	p	(4ddd	p	IV6
16AA#X	.	.	.	.	.	.	.	.
16BB	.	.	.	[4d)	.	.	.	.
16C	.	.	.	.	.	.	.	.
16D	.	.	.	.	.	8ff#	.	V2/IV
16CJJ)	.	.	.	.	.	.	.	.
=152	=152	=152	=152	=152	=152	=152	=152	=152
(16CnLL	.	(8D]	.	8d]	.	4.gg)	.	IV6
16AA#X	.	.	.	.	.	.	.	.
16BB	.	4G)	.	(8ddL	.	.	.	.
16C#X	.	.	.	.	.	.	.	.
16D	.	.	.	16bJk)	.	.	.	.
16BBJJ)	.	.	.	16r	.	.	.	.
=153	=153	=153	=153	=153	=153	=153	=153	=153
(16BBLL	.	(8D	.	8r	.	4ff#	.	V43/IV
16GG#X	.	.	.	.	.	.	.	.
16AAn	.	4F#)	.	(8ddL	.	.	.	.
16C#	.	.	.	.	.	.	.	.
16D	.	.	.	8f#J)	.	(16ff#LL	.	.
16AAJJ)	.	.	.	.	.	32ggL	.	.
.	.	.	.	.	.	32aaJJJ)	.	.
=154	=154	=154	=154	=154	=154	=154	=154	=154
(16AALL	.	(8D	.	8r	.	8bbL	.	IV
16FF#	.	.	.	.	.	.	.	.
16GGn	.	4B)	.	(8ddL	.	8bbJ	.	.
16C#	.	.	.	.	.	.	.	.
16D	.	.	.	8bJ)	.	(16bbTLL	.	.
.	.	.	.	.	.	32qqaa#X/LLL	.	.
.	.	.	.	.	.	32qqbb/JJJ	.	.
16GGJJ)	.	.	.	.	.	32ccc#L	.	.
.	.	.	.	.	.	32dddJJJ)	.	.
=155	=155	=155	=155	=155	=155	=155	=155	=155
(16GGLL	<	16r	<	16r	<	[8ddd	.	I6
16EE#X	.	(16c#LL	.	(16cc#LL	.	.	.	.
16FF#	.	16d	.	16dd	.	(16dddLL]	.	.
16EEn	[ >	16c#	[ >	16cc#	[ >	16aan)	.	.
16DD	.	16d	.	16dd	.	(16aa	.	I[V2/IV
16DJJ)	]]	16cnJJ)	]]	16ccnJJ)	]]	16ff#JJ)	.	.
=156	=156	=156	=156	=156	=156	=156	=156	=156
(16DDLL	.	(16cnLL	.	(16ccnLL	.	(16ff#LL	.	IV6
16D	.	16A#X	.	16a#X	.	[16ggJJ)	.	.
16DD	.	16B	.	16b	.	(16ggLL]	.	.
16D	.	16c	.	16cc	.	32aaL	.	.
.	.	.	.	.	.	32ggJJJ	.	.
16DD	.	16d	.	16dd	.	32ff#LLL	.	.
.	.	.	.	.	.	32gg	.	.
16DJJ)	.	16BJJ)	.	16bJJ)	.	32bb	.	.
.	.	.	.	.	.	32ggJJJ)	.	.
=157	=157	=157	=157	=157	=157	=157	=157	=157
(16DDLL	.	(16BLL	.	(16bLL	.	(32ggLLL	.	IV6
.	.	.	.	.	.	32ff#	.	.
16D	.	16G#X	.	16g#X	.	32ee#X	.	.
.	.	.	.	.	.	32ff#JJJ	.	.
16DD	.	16An	.	16an	.	32ee#LLL	.	I64
.	.	.	.	.	.	32ff#	.	.
16D	.	32c#XL	.	32cc#XL	.	32gg	.	.
.	.	32dJ)	.	32ddJ)	.	32ff#JJJ	.	.
16DD	.	(16d	.	(16dd	.	32ee#LLL	.	.
.	.	.	.	.	.	32ff#	.	.
16DJJ)	.	[16AJJ)	.	[16aJJ)	.	32gg	.	.
.	.	.	.	.	.	32aaJJJ)	.	.
=158	=158	=158	=158	=158	=158	=158	=158	=158
(16DDLL	.	(16ALL]	.	(16aLL]	.	(32aa#XLLL	.	.
.	.	.	.	.	.	32bb	.	.
16D	.	16F#JJ	.	16f#JJ	.	32ccc#	.	viio/IV
.	.	.	.	.	.	32bbJJJ)	.	.
16DD	.	16GnLL	.	16gnLL	.	(32bbLLL	.	IV
.	.	.	.	.	.	32b	.	.
16D	.	32c#L	.	32cc#L	.	32bb	.	.
.	.	32dJJJ)	.	32ddJJJ)	.	32aa#JJJ)	.	.
16DD	.	(16dLL	.	(16ddLL	.	(32aa#LLL	.	I
.	.	.	.	.	.	32bb	.	.
16DJJ)	.	16GJJ)	.	16gJJ)	.	32ccc#	.	IV
.	.	.	.	.	.	32dddJJJ)	.	.
=159	=159	=159	=159	=159	=159	=159	=159	=159
!	!	!LO:TX:b:i:t=cresc.	!	!LO:TX:b:i:t=cresc.	!	!LO:TX:b:i:t=cresc.	!	!
(16DDLL	.	(16GLL	.	(16gLL	.	(32dddLLL	.	IV]
.	.	.	.	.	.	32an	.	.
16D	.	32E#XL	.	32e#XL	.	32bb	.	.
.	.	32F#JJJ	.	32f#JJJ	.	32aanJJJ)	.	.
16FF#	.	16dLL	.	16ddLL	.	(32aaLLL	.	I6
.	.	.	.	.	.	32a	.	.
16D	.	16A#X	.	16a#X	.	32aa#X)	.	I+
.	.	.	.	.	.	32aa#JJJ	.	.
16GG#X	.	16d	.	16dd	.	(32aa#LLL	.	#viio/V
.	.	.	.	.	.	32b	.	.
16DJJ)	.	16BJJ)	.	16bJJ)	.	32bb)	.	.
.	.	.	.	.	.	32bbJJJ	.	.
=160	=160	=160	=160	=160	=160	=160	=160	=160
(16AALL	.	(16dLL	.	(16ddLL	.	32bbLLL	.	V(64)
.	.	.	.	.	.	(32d	.	.
16D	.	16F#	.	16f#JJ)	.	32een	.	.
.	.	.	.	.	.	32ddJJJ	.	.
16AA	.	16An	.	(16f#LL	.	32cc#LLL	.	.
.	.	.	.	.	.	32dd	.	.
16D	.	16F#	.	16An	.	32ff#	.	.
.	.	.	.	.	.	32eeJJJ	.	.
16AA	>	16A	>	16g	>	32dd#XLLL	>	V7
.	.	.	.	.	.	32ee	.	.
16EJJ)	]]	16GJJ)	]]	16AJJ)	]]	32gg	.	.
.	.	.	.	.	.	32ff#JJJ)	]]	.
=161	=161	=161	=161	=161	=161	=161	=161	=161
(8AAL	p	32F#LLL	p	32ALLL	p	(32eeLLL	p	V(64)
.	.	(32d	.	(32dd	.	32ff#	.	.
.	.	32f#	.	32ff#	.	32aan	.	.
.	.	32eJJJ	.	32eeJJJ	.	32ggJJJ)	.	.
!LO:TX:b:i:t=cresc.	!	!LO:TX:b:i:t=cresc.	!	!LO:TX:b:i:t=cresc.	!	!LO:TX:b:i:t=cresc.	!	!
8DD	.	32dLLL	.	32ddLLL	.	(8ff#L	.	I
.	.	32c#	.	32cc#	.	.	.	.
.	.	32B	.	32b	.	.	.	.
.	.	32AJJJ	.	32aJJJ	.	.	.	.
8EEJ	.	32GLLL	.	32gLLL	.	8ggJ	.	viio6
.	.	32e	.	32ee	.	.	.	.
.	.	32c#	.	32cc#	.	.	.	.
.	.	32GJJJ	.	32gJJJ	.	.	.	.
=162	=162	=162	=162	=162	=162	=162	=162	=162
8FF#L	.	32F#LLL	.	32f#LLL	.	8aaL	.	I6
.	.	32d	.	32dd	.	.	.	.
.	.	32A	.	32a	.	.	.	.
.	.	32F#JJJ	.	32f#JJJ	.	.	.	.
8GG#X	.	32FnLLL	.	32fnLLL	.	8bb	.	#viio7/V
.	.	32d	.	32dd	.	.	.	.
.	.	32B	.	32b	.	.	.	.
.	.	32FJJJ	.	32fJJJ	.	.	.	.
8AAJ)	>]	32ELLL	>	32eLLL	>	8ccc#J)	>]	V7
.	.	32c#	.	32cc#	.	.	.	.
.	.	32G	.	32g	.	.	.	.
.	.	32EJJJ)	]]	32eJJJ)	]]	.	.	.
=163	=163	=163	=163	=163	=163	=163	=163	=163
32DDLLL	p	8F#X	p	(8f#XL	p	(32dddLLL	p	I\\
(32F#	.	.	.	.	.	32ddJJJ)	.	.
32A	.	.	.	.	.	32r	.	.
32GnJJJ	.	.	.	.	.	32ddd	.	.
!LO:TX:b:i:t=cresc.	!	!LO:TX:b:i:t=cresc.	!	!LO:TX:b:i:t=cresc.	!	!LO:TX:b:i:t=cresc.	!	!
32F#LLL	.	(16f#LL	.	8ff#	.	(32dddLLL	.	I6
32E	.	.	.	.	.	32ddJJJ)	.	.
32D	.	16F#JJ)	.	.	.	32r	.	.
32CnJJJ	.	.	.	.	.	32ddd	.	V2/IV
32BBLLL	.	(16GLL	.	8ggJ	.	(32dddLLL	.	IV6
32G	.	.	.	.	.	32ddJJJ)	.	.
32D	.	16gJJ)	.	.	.	32r	.	.
32BBJJJ	.	.	.	.	.	32ddd	.	.
=164	=164	=164	=164	=164	=164	=164	=164	=164
32AALLL	.	(16aLL	.	8aaL	.	(32dddLLL	.	I64
32F#	.	.	.	.	.	32ddJJJ)	.	.
32D	.	16AJJ)	.	.	.	32r	.	.
32AAJJJ	.	.	.	.	.	32ddd	.	.
32GG#XLLL	.	(16BLL	.	8bb	.	(32dddLLL	.	#viio7/V
32Fn	.	.	.	.	.	32ddJJJ)	.	.
32D	.	16bJJ)	.	.	.	32r	.	.
32GG#JJJ	.	.	.	.	.	32ddd	.	.
32GGnLLL	>	(16c#LL	>	[8ccc#J)	>]	(32eeeLLL	>	viio6
32AA	.	.	.	.	.	32eeJJJ)	.	.
32GG	.	16cc#JJ)	]]	.	.	32r	.	.
32EEJJJ)	]]	.	.	.	.	32eee	]]	.
=165	=165	=165	=165	=165	=165	=165	=165	=165
(32DDLLL	p	(16cc#LL	p	(16ccc#LL]	p	(32eeeLLL	p	I(9)
32AA	.	.	.	.	.	32eeJJJ)	.	.
32FF#X	.	16ddJJ)	.	16dddJJ)	.	32r	.	.
32AAJJJ)	.	.	.	.	.	32fff#	.	.
!LO:TX:b:i:t=piu p	!	!	!	!	!	!	!	!
!LO:TX:a:i:t=piu p	!	!	!	!LO:TX:b:i:t=piu p	!	!LO:TX:b:i:t=piu p	!	!
8DD'L	.	8D'L 8d	.	8dd'L	.	8ddd'L	.	I
(8DD'J	.	(8D'J 8d	.	(8dd'J	.	(8ddd'J	.	.
=166	=166	=166	=166	=166	=166	=166	=166	=166
8DD')	.	8D') 8d	.	8dd')	.	8ddd')	.	.
8r	.	8r	.	8r	.	8r	.	.
(8E'	pp	(8G'	pp	(8ccn'	pp	(8cccn'	pp	I.I6
=167	=167	=167	=167	=167	=167	=167	=167	=167
8E')	.	8G')	.	8ccn')	.	8cccn')	.	.
8r	.	8r	.	8r	.	8r	.	.
8Fn	.	8A	.	8cc	.	8ccc	.	IV
=168||	=168||	=168||	=168||	=168||	=168||	=168||	=168||	=168||
*k[]	*	*k[]	*	*k[]	*	*k[]	*	*
*M4/4	*	*M4/4	*	*M4/4	*	*M4/4	*	*
*met(c)	*	*met(c)	*	*met(c)	*	*met(c)	*	*
!	!	!	!	!	!	!LO:TX:a:B:t=Molto adagio	!	!
4r	.	4r	.	4r	.	4r	.	.
4.F	.	4.A	.	4.cc	.	4.ccc	.	.
!	!	!	!	!LO:TX:a:t=Mit innigster Empfindung	!	!	!	!
8r	.	8r	.	(8c	.	8r	.	.
4r	.	4r	.	[4a)	.	4r	.	.
=169	=169	=169	=169	=169	=169	=169	=169	=169
!LO:TX:a:t=Mit innigster Empfindung	!	!	!	!	!	!	!	!
2r	.	8r	.	(16aLL]	.	1r	.	IV6
.	.	.	.	16gJ)	.	.	.	.
!	!	!LO:TX:a:t=Mit innigster Empfindung	!	!	!	!	!	!
.	.	(8c	.	[8ccJ	.	.	.	.
.	.	[4a)	.	(16ccLL]	.	.	.	.
.	.	.	.	16ddJ)	.	.	.	.
.	.	.	.	[8ccJ	.	.	.	.
8r	.	(16aLL]	.	(8ccL]	.	.	.	.
.	.	16gJ)	.	.	.	.	.	.
(8C	.	[8ccJ	.	8eJ	.	.	.	.
[4A)	.	(16ccLL]	.	4f)	.	.	.	.
.	.	16ddJ)	.	.	.	.	.	.
.	.	[8ccJ	.	.	.	.	.	.
=170	=170	=170	=170	=170	=170	=170	=170	=170
(16ALL]	.	(8ccL]	.	(4g	.	8r	.	I64
16GJ)	.	.	.	.	.	.	.	.
[8cJ	.	8ee	.	.	.	8r	.	I
(16cLL]	.	8ff	.	8AL) 8f	.	4r	.	IV6
16dJ)	.	.	.	.	.	.	.	.
[8cJ	.	8AJ) 8f	.	[8ffJ	.	.	.	.
*	*	*^	*	*	*	*	*	*
(8cL]	<	(4g	2A	p <	2ff]	<[	4r	.	IV6(9)
8EJ	.	.	.	.	.	.	.	.	.
4F	[[	4f)	.	.	.	.	4r	.	IV
*	*	*v	*v	*	*	*	*	*	*
=171	=171	=171	=171	=171	=171	=171	=171	=171
4G	p	1r	[	2ff	p	8r	.	IV(9)
!	!	!	!	!	!	!LO:TX:b:t=Mit innigster Empfindung	!	!
.	.	.	.	.	.	(8c	.	IV
4F)	.	.	.	.	.	[4a)	.	.
(4c	.	.	.	2ee	.	(16aLL]	.	I
.	.	.	.	.	.	16gJ)	.	.
.	.	.	.	.	.	[8ccJ	.	.
[4C)	.	.	.	.	.	(16ccLL]	.	.
.	.	.	.	.	.	16ddJ)	.	.
.	.	.	.	.	.	[8ccJ	.	.
=172	=172	=172	=172	=172	=172	=172	=172	=172
(4C]	.	2r	.	2dd	.	(8ccL]	.	I(9)
.	.	.	.	.	.	8f	.	.
2CC)	<	.	.	.	.	8g	.	.
.	.	.	.	.	.	[8aJ)	.	.
.	.	2c	<[	2ee	<[	(16aLL]	<	I(6)
.	.	.	.	.	.	16fJ)	.	.
.	.	.	.	.	.	[8gJ	.	I
4C	[[	.	.	.	.	(16gLL]	.	.
.	.	.	.	.	.	16aJ)	.	.
.	.	.	.	.	.	[8gJ	[[	.
=173	=173	=173	=173	=173	=173	=173	=173	=173
1r	.	2c	p	8r	.	(4g]	p	.
.	.	.	.	(8g	p	.	.	.
.	.	.	.	[4ee)	.	2G)	.	V
.	.	2B	.	(16eeLL]	.	.	.	.
.	.	.	.	16ddJ)	.	.	.	.
.	.	.	.	[8ggJ	.	.	.	.
.	.	.	.	(16ggLL]	.	(4dd	.	.
.	.	.	.	16aaJ)	.	.	.	.
.	.	.	.	[8ggJ	.	.	.	.
=174	=174	=174	=174	=174	=174	=174	=174	=174
2r	.	2A	.	(8ggL]	.	(4cc)	.	vi
.	.	.	.	8cc	.	.	.	.
.	.	.	.	8dd	.	4ccc	.	.
*clefC4	*	*	*	*	*	*	*	*
2ryy	<[	2ryy	<[	(16eeLL]	<	4ryy	<	V65
.	.	.	.	16ccJ)	.	.	.	.
.	.	.	.	[8ddJ	.	.	.	.
.	.	.	.	(16ddLL]	.	4gg	[[	.
.	.	.	.	16eeJ)	.	.	.	.
.	.	.	.	8ddJ	[[	.	.	.
=175	=175	=175	=175	=175	=175	=175	=175	=175
2f	p	8r	.	(4cc	p	4aa)	p	IV
.	.	(8C	p	.	.	.	.	.
.	.	[4A)	.	2c)	.	4r	.	IV6
2e	.	(16ALL]	.	.	.	2r	.	I
.	.	16GJ)	.	.	.	.	.	.
.	.	[8cJ	.	.	.	.	.	.
.	.	(16cLL]	.	[4cc	.	.	.	.
.	.	16dJ)	.	.	.	.	.	.
.	.	(8cJ	.	.	.	.	.	.
=176	=176	=176	=176	=176	=176	=176	=176	=176
2d	.	(8cL)	.	(4cc]	.	2r	.	ii65
.	.	8F	.	.	.	.	.	.
.	.	8G	.	2c)	.	.	.	.
.	.	[8AJ)	.	.	.	.	.	.
2e	<[	(16ALL]	<	.	.	2cc	<[	I64
.	.	16FJ)	.	.	.	.	.	.
.	.	[8GJ	.	.	.	.	.	.
.	.	(16GLL]	.	[4c	<[	.	.	.
.	.	16AJ)	.	.	.	.	.	.
.	.	8GJ	[[	.	.	.	.	.
=177	=177	=177	=177	=177	=177	=177	=177	=177
!	!	!LO:TX:b:i:t=cresc.	!	!LO:TX:b:i:t=cresc.	!	!LO:TX:b:i:t=cresc.	!	!
8r	.	(16ELL	.	(16cLL]	.	2cc	.	I6
.	.	16DJ)	.	16BJ)	.	.	.	.
!LO:TX:b:i:t=cresc.	!	!	!	!	!	!	!	!
(8GG	.	[8EJ	.	[8cJ	.	.	.	.
[4E)	.	(16ELL]	.	(16cLL]	.	.	.	.
.	.	16FJ)	.	16dJ)	.	.	.	.
.	.	8EJ	.	8cJ	.	.	.	.
(16ELL]	.	8r	.	2gg	.	2b	.	V
16DJ)	.	.	.	.	.	.	.	.
[8GJ	.	[8B	.	.	.	.	.	.
(16GLL]	.	(16BLL]	.	.	.	.	.	.
16AJ)	.	16cJ)	.	.	.	.	.	.
[8GJ	.	8BJ	.	.	.	.	.	.
=178	=178	=178	=178	=178	=178	=178	=178	=178
(8GL]	.	8r	.	2gg	.	2a	.	vi65
8C	.	[8c	.	.	.	.	.	.
8D	.	(16cLL]	.	.	.	.	.	.
.	.	16dJ)	.	.	.	.	.	.
[8EJ)	.	8cJ	.	.	.	.	.	.
(16ELL]	.	2g	.	2ff	.	2b	.	V43
16CJ)	.	.	.	.	.	.	.	.
[8DJ	.	.	.	.	.	.	.	.
(16DLL]	.	.	.	.	.	.	.	.
16EJ)	.	.	.	.	.	.	.	.
[8DJ	.	.	.	.	.	.	.	.
=179	=179	=179	=179	=179	=179	=179	=179	=179
(16DLL]	.	2g	.	2ee	.	2cc	.	I
16BBJ)	.	.	.	.	.	.	.	.
[8CJ	.	.	.	.	.	.	.	.
(16CLL]	.	.	.	.	.	.	.	.
16DJ)	.	.	.	.	.	.	.	.
[8CJ	.	.	.	.	.	.	.	.
(16CLL]	.	2g	.	[2dd	.	2ff	.	V65
16AAJ)	.	.	.	.	.	.	.	.
[8BBJ	.	.	.	.	.	.	.	.
(16BBLL]	.	.	.	.	.	.	.	.
16CJ)	.	.	.	.	.	.	.	.
8BBJ	.	.	.	.	.	.	.	.
=180	=180	=180	=180	=180	=180	=180	=180	=180
!LO:TX:b:i:t=dim.	!	!LO:TX:b:i:t=dim.	!	!LO:TX:b:i:t=dim.	!	!LO:TX:b:i:t=dim.	!	!
2C	.	8fL	.	(16ddLL]	.	2ee	.	I
.	.	.	.	16bJ)	.	.	.	.
.	.	(8FJ	.	[8ccJ	.	.	.	.
.	.	[4g)	.	(16ccLL]	.	.	.	.
.	.	.	.	16ddJ)	.	.	.	.
.	.	.	.	8ccJ	.	.	.	.
2D	.	(16gLL]	.	[2a	.	[2dd	.	ii
.	.	16eJ)	.	.	.	.	.	.
.	.	[8fJ	.	.	.	.	.	.
.	.	(16fLL]	.	.	.	.	.	.
.	.	16gJ)	.	.	.	.	.	.
.	.	[8fJ	.	.	.	.	.	.
=181	=181	=181	=181	=181	=181	=181	=181	=181
!LO:TX:b:t=p piu p	!	!LO:TX:b:t=p piu p	!	!LO:TX:b:t=p piu p	!	!LO:TX:b:t=p piu p	!	!
1AA	.	2f]	.	(16aLL]	.	(4dd]	.	ii64
.	.	.	.	16c#XJ)	.	.	.	.
.	.	.	.	[8dJ	.	.	.	.
.	.	.	.	(16dLL]	.	2a)	.	V(4)/ii
.	.	.	.	16eJ)	.	.	.	.
.	.	.	.	[8dJ	.	.	.	.
.	.	2e	.	(4d]	.	.	.	.
.	.	.	.	4c#)	.	4a	.	V/ii
=182	=182	=182	=182	=182	=182	=182	=182	=182
2D	pp	2F	pp	2d	pp	2a	pp	ii
2r	.	2r	.	2r	.	8r	.	.
.	.	.	.	.	.	(8c	.	IV64
.	.	.	.	.	.	[4a)	.	.
=183	=183	=183	=183	=183	=183	=183	=183	=183
1r	.	8r	.	2r	.	(16aLL]	.	.
.	.	.	.	.	.	16gJ)	.	.
.	.	(8c	.	.	.	[8ccJ	.	.
.	.	[4a)	.	.	.	(16ccLL]	.	.
.	.	.	.	.	.	16ddJ)	.	.
.	.	.	.	.	.	[8ccJ	.	.
.	.	(16aLL]	.	8r	.	(8ccL]	.	.
.	.	16gJ)	.	.	.	.	.	.
.	.	[8ccJ	.	(8ccn	.	8eJ	.	I
.	.	(16ccLL]	.	[4aa)	.	4f	.	IV64
.	.	16ddJ)	.	.	.	.	.	.
.	.	8ccJ	.	.	.	.	.	.
=184	=184	=184	=184	=184	=184	=184	=184	=184
8r	.	8eL 8cc	.	(16aaLL]	.	4g	.	I6
.	.	.	.	16ggJ)	.	.	.	.
(8CC	.	(8eJ	.	[8cccJ	.	.	.	.
4AA)	.	4f	.	(16cccLL]	.	4f)	.	IV6
.	.	.	.	16dddJ)	.	.	.	.
.	.	.	.	[8cccJ	.	.	.	.
!	!	!LO:TX:a:i:t=cresc.	!	!	!	!	!	!
!LO:TX:b:i:t=cresc.	!	!LO:TX:b:i:t=cresc.	!	!	!	!	!	!
2FF	.	4g	.	(8cccL]	.	(8e	.	IV(7)
!	!	!	!	!	!	!LO:TX:b:i:t=cresc.	!	!
.	.	.	.	8ee	.	4cc)	.	IV
.	.	[4f)	.	8ff	.	.	.	.
.	.	.	.	8aJ)	.	[8cc	.	.
=185	=185	=185	=185	=185	=185	=185	=185	=185
2FF	p	8fL]	p	2aa	p	(4cc]	p	.
.	.	(8CJ	.	.	.	.	.	.
.	.	[4A)	.	.	.	4.ccc)	.	I6
2EE	.	(16ALL]	.	2gg	.	.	.	.
.	.	16GJ)	.	.	.	.	.	.
.	.	[8cJ	.	.	.	(8ccc	.	.
.	.	(16cLL]	.	.	.	4ggg)	.	.
.	.	16dJ)	.	.	.	.	.	.
.	.	[8cJ	.	.	.	.	.	.
=186	=186	=186	=186	=186	=186	=186	=186	=186
2DD	.	(8cL]	.	2ff	.	8r	.	ii7
.	.	8F	.	.	.	(8ggg	.	.
.	.	8G	.	.	.	4fff)	.	.
.	.	[8AJ)	.	.	.	.	.	.
2EE	.	(16ALL]	.	(8ggL	.	2ccc	.	I6
.	.	16FJ)	.	.	.	.	.	.
.	.	[8GJ	.	8ccJ	.	.	.	.
.	.	(16GLL]	.	[4gg)	.	.	.	.
.	.	16AJ)	.	.	.	.	.	.
.	.	8GJ	.	.	.	.	.	.
=187	=187	=187	=187	=187	=187	=187	=187	=187
2FF	.	(8AL	.	(16ggLL]	.	(2ccc	.	IV
.	.	.	.	16eeJ)	.	.	.	.
.	.	8CJ)	.	[8ffJ	.	.	.	.
.	.	4a	.	(16ffLL]	.	.	.	.
.	.	.	.	16ggJ)	.	.	.	.
.	.	.	.	[8ffJ	.	.	.	.
!LO:TX:b:i:t=cresc.	!	!LO:TX:b:i:t=cresc.	!	!LO:TX:b:i:t=cresc.	!	!LO:TX:b:i:t=cresc.	!	!
2GG	.	(8dL	.	(16ffLL]	.	4bb	.	V7
.	.	.	.	16eeJ)	.	.	.	.
.	.	8BJ)	.	[8ffJ	.	.	.	.
.	.	4d 4b	.	(16ffLL]	.	4fff)	.	.
.	.	.	.	16ggJ)	.	.	.	.
.	.	.	.	8ffJ	.	.	.	.
=188	=188	=188	=188	=188	=188	=188	=188	=188
8FFL	.	(16ccLL	.	4a 4ff	.	2fff	.	IV6
.	.	16bJ)	.	.	.	.	.	.
(8CCJ	.	[8ccJ	.	.	.	.	.	.
[4AA)	.	(16ccLL]	.	4f	.	.	.	.
.	.	16ddJ)	.	.	.	.	.	.
.	.	[8ccJ	.	.	.	.	.	.
(16AALL]	.	(16ccLL]	.	(16cLL	.	2eee	.	I
16GGJ)	.	16dJ)	.	16bJ)	.	.	.	.
8CJ	.	[8eJ	.	[8ccJ	.	.	.	.
4CC 4C	f	(16eLL]	.	(16ccLL]	.	.	.	.
.	.	16fJ)	.	16ddJ)	.	.	.	.
.	.	[8eJ	.	[8ccJ	.	.	.	.
=189	=189	=189	=189	=189	=189	=189	=189	=189
2CC 2C	sf	16eLL]	f	16ccLL]	f	2ddd	f	ii2
.	.	16eJ	.	16ccJ	.	.	.	.
.	.	[8fJ	.	[8ddJ	.	.	.	.
.	.	(16fLL]	.	(16ddLL]	.	.	.	.
.	.	16gJ)	.	16eeJ)	.	.	.	.
.	.	8fJ	.	[8ddJ	.	.	.	.
2BB	sf	(16gLL	.	(16ddLL]	.	2eee	sf	IM2
.	.	16BJ)	.	16ddJ)	.	.	.	.
.	.	[8cJ	.	[8eeJ	.	.	.	.
.	.	(16cLL]	.	(16eeLL]	.	.	.	.
.	.	16dJ)	.	16ffJ)	.	.	.	.
.	.	[8cJ	.	[8eeJ	.	.	.	.
=190	=190	=190	=190	=190	=190	=190	=190	=190
2AA	sf	(16cLL]	.	(16eeLL]	.	2fff	sf	IV6(7)
.	.	16bJ)	.	16ddJ)	.	.	.	.
.	.	[8ccJ	sf	[8eeJ	sf	.	.	.
.	.	(16ccLL]	.	(16eeLL]	.	.	.	.
.	.	16ddJ)	.	16ffJ)	.	.	.	.
.	.	8ccJ	.	8eeJ	.	.	.	.
2BB	sf	(16fLL	sf	(16ddLL	sf	2ggg	sf	V65
.	.	16cJ)	.	16eeJ)	.	.	.	.
.	.	[8dJ	.	[8ddJ	.	.	.	.
.	.	(16dLL]	.	(16ddLL]	.	.	.	.
.	.	16cJ)	.	16eeJ)	.	.	.	.
.	.	8dJ	.	8ddJ	.	.	.	.
=191	=191	=191	=191	=191	=191	=191	=191	=191
2CC 2C	sf	2C 2c	sf	2c 2a	sf	1fff	sf	viio6
2D	sf	2f	sf	2b	sf	.	.	.
=192	=192	=192	=192	=192	=192	=192	=192	=192
[2CC [2C	sf	2G 2e	sf	2e 2cc	sf	2ggg	sf	I[I64
(16CCLL] 16C]	.	2f	sf	2b	sf	2aaa	sf	vii%43
16BBJ)	.	.	.	.	.	.	.	.
[8CJ	.	.	.	.	.	.	.	.
(16CLL]	.	.	.	.	.	.	.	.
16DJ)	.	.	.	.	.	.	.	.
8CJ	.	.	.	.	.	.	.	.
=193	=193	=193	=193	=193	=193	=193	=193	=193
2CC 2C	sf	2G 2e	sf	2e 2cc	sf	1ggg	sf	viio6
2D	sf	2B	sf	2f	sf	.	.	.
=194	=194	=194	=194	=194	=194	=194	=194	=194
!	!	!	!	!	!	!LO:TX:b:i:t=dim.	!	!
8r	.	8r	.	2r	.	(2ggg	.	I
!LO:TX:b:i:t=dim.	!	!LO:TX:b:i:t=dim.	!	!	!	!	!	!
(8CL	.	(8EL	.	.	.	.	.	.
8D	.	8F	.	.	.	.	.	.
[8EJ)	.	[8GJ)	.	.	.	.	.	.
!	!	!	!	!LO:TX:b:i:t=dim.	!	!	!	!
(16ELL]	.	(16GLL]	.	8r	.	2fff	.	ii
16CJ)	.	16EJ)	.	.	.	.	.	.
[8DJ	.	[8FJ	.	(8BL	.	.	.	.
(16DLL]	.	(16FLL]	.	8c	.	.	.	.
16EJ)	.	16GJ)	.	.	.	.	.	.
[8FJ	.	8AJ	.	8dJ)	.	.	.	.
=195	=195	=195	=195	=195	=195	=195	=195	=195
(8FL]	.	(8AL	.	8r	.	2ccc	.	ii6
8E	.	8G	.	(8cL	.	.	.	.
8F	.	8A	.	8d	.	.	.	.
[8GJ)	.	[8cJ)	.	8eJ)	.	.	.	.
(16GLL]	.	(16cLL]	.	(8cL	.	2aa)	.	IV6
16EJ)	.	16GJ)	.	.	.	.	.	.
8.FJ	.	8.AJ	.	[8ccJ)	.	.	.	.
.	.	.	.	(16ccLL]	.	.	.	.
16GKL	.	16cKL	.	16eeJ)	.	.	.	.
8AJ	.	8ccJ	.	[8ffJ	.	.	.	.
=196	=196	=196	=196	=196	=196	=196	=196	=196
8r	.	(8CL	p	(8ffL]	p	(2gg	p	I6
(8CCL	p	8E	.	8ee	.	.	.	.
8DD	.	8F	.	8dd	.	.	.	.
[8EEJ)	.	[8GJ)	.	[8ccJ)	.	.	.	.
!	!	!LO:TX:b:i:t=piu p	!	!	!	!	!	!
!LO:TX:b:i:t=piu p	!	!LO:TX:a:i:t=piu p	!	!	!	!LO:TX:b:i:t=piu p	!	!
(16EELL]	.	(16GLL]	.	(16ccLL]	.	2gg)	.	ii6
16CCJ)	.	16EJ)	.	16aJ)	.	.	.	.
[8DDJ	.	[8FJ	.	[8bJ	.	.	.	.
(16DDLL]	.	(16FLL]	.	(16bLL]	.	.	.	.
16EEJ)	.	16GJ)	.	16ccJ)	.	.	.	.
8FFJ	.	8AJ	.	[8ddJ	.	.	.	.
=197	=197	=197	=197	=197	=197	=197	=197	=197
(16GGLL	.	(16BLL	.	(16ddLL]	.	2ff	.	V43
16AJ)	.	16cJ)	.	16ccJ)	.	.	.	.
[8BJ	.	[8dJ	.	[8bJ	.	.	.	.
(16BLL]	.	(16dLL]	.	(16bLL]	.	.	.	.
16cJ)	.	16eJ)	.	16aJ)	.	.	.	.
8dJ	.	8fJ	.	8gJ	.	.	.	.
4r	<	4r	<	2cc	<[	2ee	pp	I
4C	[[	4G 4e	[[	.	.	.	.	.
=198	=198	=198	=198	=198	=198	=198	=198	=198
2C	p <	2G 2e	p <	2cc	p <	2r	.	.
2GG	[ > ]]	2G 2d	[ > ]]	2b	[ > ]]	2ff	<[	V7
=199	=199	=199	=199	=199	=199	=199	=199	=199
2r	.	2d	<	2r	.	2ff	p <	ii
2C	.	2c	[ > ]]	2ccc	.	2ee	[ > ]]	I
=200	=200	=200	=200	=200	=200	=200	=200	=200
2C	.	2e 2cc	.	2ccc	.	2r	.	.
!LO:TX:b:i:t=cresc.	!	!LO:TX:b:i:t=cresc.	!	!LO:TX:b:i:t=cresc.	!	!LO:TX:b:i:t=cresc.	!	!
2GG	.	2d 2f	.	4bb	.	2ddd	.	V7
.	.	.	.	4b 4ff	.	.	.	.
=201	=201	=201	=201	=201	=201	=201	=201	=201
2.CC 2.GG	sf	2.B 2.f	sf	2.b 2.ff	sf	2.ddd	sf	V7(94)
4CC 4GG	>]	4C 4c	>]	4g 4ee	>]	4ccc	>]	I
=202	=202	=202	=202	=202	=202	=202	=202	=202
(2FF	p	(2C 2c	p	8r	.	[1ccc	p	I6
.	.	.	.	(8c	p	.	.	.
.	.	.	.	[4a)	.	.	.	.
[2EE)	.	2G	.	(16aLL]	.	.	.	.
.	.	.	.	16gJ)	.	.	.	.
.	.	.	.	[8ccJ	.	.	.	.
.	.	.	.	(16ccLL]	.	.	.	.
.	.	.	.	16ddJ)	.	.	.	.
.	.	.	.	[8ccJ	.	.	.	.
=203	=203	=203	=203	=203	=203	=203	=203	=203
8EEL]	.	2F	.	(8ccL]	.	1ccc_	.	I
(8EEJ	.	.	.	8f	.	.	.	.
4.DD	.	.	.	8g	.	.	.	.
.	.	.	.	[8aJ)	.	.	.	.
.	.	2E)	.	(16aLL]	.	.	.	.
.	.	.	.	16fJ)	.	.	.	.
8D	.	.	.	[8gJ	.	.	.	.
4C)	.	.	.	(16gLL]	.	.	.	.
.	.	.	.	16aJ)	.	.	.	.
.	.	.	.	8gJ	.	.	.	.
=204	=204	=204	=204	=204	=204	=204	=204	=204
[1CC [1C	.	(2f	.	(4a	.	8cccL]	.	I[IV
.	.	.	.	.	.	(8ccJ	.	.
.	.	.	.	2cc)	.	[4aa)	.	.
.	.	[2e)	.	.	.	(16aaLL]	.	I6
.	.	.	.	.	.	16ggJ)	.	.
.	.	.	.	.	.	[8cccJ	.	.
.	.	.	.	4cc	.	(16cccLL]	.	.
.	.	.	.	.	.	16dddJ)	.	.
.	.	.	.	.	.	[8cccJ	.	.
=205	=205	=205	=205	=205	=205	=205	=205	=205
1CC_ 1C_	.	8eL]	.	(2ff	.	(8cccL]	.	ii7(2)
.	.	(8eJ	.	.	.	8ff	.	.
.	.	4.d	.	.	.	8gg	.	V43
.	.	.	.	.	.	[8aaJ)	.	.
.	.	.	.	2ee)	.	(16aaLL]	.	.
.	.	.	.	.	.	16ffJ)	.	.
.	.	8dd	.	.	.	[8ggJ	.	I
.	.	4cc)	.	.	.	(16ggLL]	.	.
.	.	.	.	.	.	16aaJ)	.	.
.	.	.	.	.	.	8ggJ	.	.
=206	=206	=206	=206	=206	=206	=206	=206	=206
8CCL] 8C]	.	1C 1c	.	(8aL	.	(2fff	.	IV6
(8CCJ	.	.	.	8dd	.	.	.	.
[4AA)	.	.	.	8cc	.	.	.	.
.	.	.	.	8ffJ)	.	.	.	.
(16AALL]	.	.	.	2gg	.	2eee	.	I
16GGJ)	.	.	.	.	.	.	.	.
[8CJ	.	.	.	.	.	.	.	.
(16CLL]	.	.	.	.	.	.	.	.
16DJ)	.	.	.	.	.	.	.	.
8CJ	.	.	.	.	.	.	.	.
=207	=207	=207	=207	=207	=207	=207	=207	=207
2D	.	2f	.	2ff	.	2ddd	.	ii
[2C	.	[2G [2e	.	[2gg	.	[2eee)	.	I[I64
=208	=208	=208	=208	=208	=208	=208	=208	=208
!LO:TX:b:i:t=cresc.	!	!LO:TX:b:i:t=cresc.	!	!LO:TX:b:i:t=cresc.	!	!LO:TX:b:i:t=cresc.	!	!
4C]	.	4G] 4e]	.	4gg]	.	4eee]	.	.
(4C'	.	(4G' 4g	.	(4ccc'	.	(4eee'	.	.
4C'	.	4G' 4f	.	4ccc'	.	4ddd'	.	V7(+4)
4C')	.	4G') 4g	.	4ccc')	.	4eee')	.	I64]
=209	=209	=209	=209	=209	=209	=209	=209	=209
2FF	p	2A 2f	p	2a 2ccc	p	2fff	p	IV
2r	.	2a	.	2cc	.	2r	.	vi
=210	=210	=210	=210	=210	=210	=210	=210	=210
!LO:TX:b:i:t=piu p	!	!LO:TX:b:i:t=piu p	!	!LO:TX:b:i:t=piu p	!	!LO:TX:b:i:t=piu p	!	!
[4f	.	[4cc	.	[4ccc	.	[4aaa	.	IV
(8fL]	.	(8ccL]	.	(8cccL]	.	(8aaaL]	.	.
8fJ)	.	8ccJ)	.	8cccJ)	.	8aaaJ)	.	.
[4f	.	[4a	.	[4a [4aa	.	[4aaa	.	.
(8fL]	.	(8aL]	.	(8aL] 8aa]	.	(8aaaL]	.	.
8fJ)	.	8aJ)	.	8aJ) 8aa	.	8aaaJ)	.	.
=211	=211	=211	=211	=211	=211	=211	=211	=211
2f;	pp	2a;	pp	2cc; 2aa	pp	2fff;	pp	IV\\
2r	.	2r	.	2r	.	2r	.	.
==	==	==	==	==	==	==	==	==
*-	*-	*-	*-	*-	*-	*-	*-	*-
!!!system-decoration: [(s1,s2,s3,s4)]
